!!!!SEGMENT: pl-cz--iii-177_elsner-jozef--ave-maris-stella.krn
!!!cenid: 18xx:219
!!!COM: Elsner, Józef
!!!COM-rismid: pe30000957
!!!CDT: 1769/06/01-1854/04/18
!!!CNT: Polish
!!!OTL: Ave maris stella
!!!PDT:
!!!AGN: Sacred
!!!SMS-siglum: PL-CZ
!!!SMS-shelfmark: III-177
!!!SMS-shelfwork: W
!!!NIFC-rismid:
!!!URL-scan: http://repozytorium.nifc.pl/skany/pl-cz-nut--iii-177
!!!ONB-nifc:
!!!AIN: 1 alto 2 clars 2 cor 1 empty 1 organ 1 tenor 1 viola 2 violn 1 vox
!!!key:
**kern	**dynam	**kern	**dynam	**kern	**dynam	**kern	**dynam	**kern	**text	**dynam	**kern	**text	**dynam	**kern	**text	**dynam	**kern	**text	**dynam	**kern	**kern	**kern	**dynam	**kern	**dynam
*part12	*part12	*part11	*part11	*part10	*part10	*part9	*part9	*part8	*part8	*part8	*part7	*part7	*part7	*part6	*part6	*part6	*part5	*part5	*part5	*part4	*part3	*part2	*part2	*part1	*part1
*group4	*	*group4	*	*group4	*	*group4	*	*group3	*	*	*group3	*	*	*group3	*	*	*group3	*	*	*group2	*group2	*group1	*	*group1	*
*staff12	*	*staff11	*	*staff10	*	*staff9	*	*staff8	*staff8	*	*staff7	*staff7	*	*staff6	*staff6	*	*staff5	*staff5	*	*staff4	*staff3	*staff2	*	*staff1	*
*Iorgan	*	*Iviola	*	*Ivioln	*	*Ivioln	*	*Iempty	*	*	*Itenor	*	*	*Ialto	*	*	*Ivox	*	*	*Icor	*Icor	*Iclars	*	*Iclars	*
*I"Baſso et Organo.	*	*I"Viola.	*	*I"Violino 2do	*	*I"Violino 1mo	*	*I"Baſso.	*	*	*I"Tenore.	*	*	*I"Alto.	*	*	*I"Canto.	*	*	*I"Corno 2do in D.	*I"Corno 1mo in D.	*I"Clarinetto in A 2do	*	*I"Clarinetto in A 1mo	*
*I'B.Org.	*	*I'V-la	*	*I'V-no 2	*	*I'V-no 1	*	*I'B.	*	*	*I'T.	*	*	*I'A.	*	*	*I'S.	*	*	*I'C. 2 in D	*I'C. 1 in D.	*I'Cl. 2 in A	*	*I'Cl. 1 in A	*
*clefF4	*	*clefC3	*	*clefG2	*	*clefG2	*	*clefF4	*	*	*clefC4	*	*	*clefC3	*	*	*clefC1	*	*	*clefG2	*clefG2	*clefG2	*	*clefG2	*
*	*	*	*	*	*	*	*	*	*	*	*	*	*	*	*	*	*	*	*	*ITrd6c10	*ITrd6c10	*ITrd2c3	*	*ITrd2c3	*
*k[f#c#g#]	*	*k[f#c#g#]	*	*k[f#c#g#]	*	*k[f#c#g#]	*	*k[f#c#g#]	*	*	*k[f#c#g#]	*	*	*k[f#c#g#]	*	*	*k[f#c#g#]	*	*	*k[f#c#g#]	*k[f#c#g#]	*k[f#c#g#]	*	*k[f#c#g#]	*
*A:	*	*A:	*	*A:	*	*A:	*	*A:	*	*	*A:	*	*	*A:	*	*	*A:	*	*	*A:	*A:	*A:	*	*A:	*
*M3/4	*	*M3/4	*	*M3/4	*	*M3/4	*	*M3/4	*	*	*M3/4	*	*	*M3/4	*	*	*M3/4	*	*	*M3/4	*M3/4	*M3/4	*	*M3/4	*
=1	=1	=1	=1	=1	=1	=1	=1	=1	=1	=1	=1	=1	=1	=1	=1	=1	=1	=1	=1	=1	=1	=1	=1	=1	=1
*	*	*	*	*	*	*	*	*	*	*	*	*	*	*	*	*	*	*	*	*	*	*8\right	*	*8\right	*
!	!	!	!	!	!	!	!	!	!	!	!	!	!	!LO:TX:b:t=P:problem=w źródle krzyżyki fis i gis oktawę niżej	!	!	!LO:TX:b:t=P:problem=w źródle krzyżyk cis oktawę wyżej	!	!	!LO:TX:b:t=P:problem=brak znaków przy kluczu	!LO:TX:b:t=P:problem=brak znaków przy kluczu	!	!	!LO:TX:a:i:t=Solo	!
!	!	!	!	!LO:TX:b:t=7.	!	!LO:TX:a:t=7.	!	!LO:TX:a:t=4.	!	!	!LO:TX:a:t=4.	!	!	!LO:TX:a:t=4.	!	!	!LO:TX:a:t=4.	!	!	!LO:TX:a:t=2.	!LO:TX:a:t=2.	!LO:TX:a:i:t=dolce.	!	!LO:TX:a:i:t=dolce.	!
!LO:TX:a:Bi:t=Andantino	!	!LO:TX:a:Bi:t=Andantino	!	!LO:TX:a:Bi:t=Andantino	!	!LO:TX:a:Bi:t=Andantino	!	!LO:TX:a:Bi:t=Andantino	!	!	!LO:TX:a:Bi:t=Andantino.	!	!	!LO:TX:a:Bi:t=Andantino	!	!	!LO:TX:a:Bi:t=Andantino.	!	!	!LO:TX:a:Bi:t=Andantino.	!LO:TX:a:Bi:t=Andantino.	!LO:TX:a:Bi:t=Andantino	!LO:DY:rj	!LO:TX:a:Bi:t=Andantino	!LO:DY:rj:t=p:
!	!	!	!	!LO:N:vis=00	!	!LO:N:vis=00	!	!LO:N:vis=00	!	!	!LO:N:vis=00	!	!	!LO:N:vis=00	!	!	!LO:N:vis=00	!	!	!LO:N:vis=0	!LO:N:vis=0	!	!	!	!
2.r	.	2.r	.	0.r	.	0.r	.	0.r	.	.	0.r	.	.	0.r	.	.	0.r	.	.	1.r	1.r	8cc#\L	p	8ee\L	p
.	.	.	.	.	.	.	.	.	.	.	.	.	.	.	.	.	.	.	.	.	.	8b#X\J	.	8dd#X\J	.
*	*	*	*	*	*	*	*	*	*	*	*	*	*	*	*	*	*	*	*	*	*	*4\right	*	*4\right	*
!	!LO:DY:b	!	!	!	!	!	!	!	!	!	!	!	!	!	!	!	!	!	!	!	!	!	!	!	!
.	p	.	.	.	.	.	.	.	.	.	.	.	.	.	.	.	.	.	.	.	.	4.cc#\	.	4.ee\	.
.	.	.	.	.	.	.	.	.	.	.	.	.	.	.	.	.	.	.	.	.	.	8dd\	.	8ff#\	.
=2	=2	=2	=2	=2	=2	=2	=2	=2	=2	=2	=2	=2	=2	=2	=2	=2	=2	=2	=2	=2	=2	=2	=2	=2	=2
4r	.	4r	.	.	.	.	.	.	.	.	.	.	.	.	.	.	.	.	.	.	.	8cc#\L	.	8ee\L	.
.	.	.	.	.	.	.	.	.	.	.	.	.	.	.	.	.	.	.	.	.	.	8b#X\J	.	8dd#X\J	.
8r	.	8r	.	.	.	.	.	.	.	.	.	.	.	.	.	.	.	.	.	.	.	4.b\	.	4.dd\	.
*8\right	*	*	*	*	*	*	*	*	*	*	*	*	*	*	*	*	*	*	*	*	*	*	*	*	*
8E\	.	(8E/	.	.	.	.	.	.	.	.	.	.	.	.	.	.	.	.	.	.	.	.	.	.	.
*4\right	*	*	*	*	*	*	*	*	*	*	*	*	*	*	*	*	*	*	*	*	*	*	*	*	*
4F#\	.	4F#/)	.	.	.	.	.	.	.	.	.	.	.	.	.	.	.	.	.	.	.	.	.	.	.
.	.	.	.	.	.	.	.	.	.	.	.	.	.	.	.	.	.	.	.	.	.	8a\	.	8cc#\	.
=3	=3	=3	=3	=3	=3	=3	=3	=3	=3	=3	=3	=3	=3	=3	=3	=3	=3	=3	=3	=3	=3	=3	=3	=3	=3
*2\right	*	*	*	*	*	*	*	*	*	*	*	*	*	*	*	*	*	*	*	*	*	*	*	*	*
2D\	.	(2D/	.	.	.	.	.	.	.	.	.	.	.	.	.	.	.	.	.	4r	4r	2f#/	.	(4.b\	.
*	*	*	*	*	*	*	*	*	*	*	*	*	*	*	*	*	*	*	*	*4\right	*4\right	*	*	*	*
.	.	.	.	.	.	.	.	.	.	.	.	.	.	.	.	.	.	.	.	4d\	4f#\	.	.	.	.
*	*	*	*	*	*	*	*	*	*	*	*	*	*	*	*	*	*	*	*	*	*	*	*	*16\right	*
.	.	.	.	.	.	.	.	.	.	.	.	.	.	.	.	.	.	.	.	.	.	.	.	16cc#\LL	.
.	.	.	.	.	.	.	.	.	.	.	.	.	.	.	.	.	.	.	.	.	.	.	.	16dd\JJ)	.
4E\	.	4E/)	.	.	.	.	.	.	.	.	.	.	.	.	.	.	.	.	.	4e\	4e\	4d/	.	8g#\L	.
.	.	.	.	.	.	.	.	.	.	.	.	.	.	.	.	.	.	.	.	.	.	.	.	16a\L	.
.	.	.	.	.	.	.	.	.	.	.	.	.	.	.	.	.	.	.	.	.	.	.	.	16b\JJ	.
=4	=4	=4	=4	=4	=4	=4	=4	=4	=4	=4	=4	=4	=4	=4	=4	=4	=4	=4	=4	=4	=4	=4	=4	=4	=4
!	!	!	!	!	!	!	!	!	!	!	!	!	!	!	!	!	!	!	!	!	!	!	!	!LO:LB:g=original	!
*	*	*	*	*	*	*	*	*	*	*	*	*	*	*	*	*	*	*	*	*	*2\right	*	*	*	*
2AA/	.	2A/	.	.	.	.	.	.	.	.	.	.	.	.	.	.	.	.	.	2A/	2e\	8.c#/L	.	8.a\L	.
.	.	.	.	.	.	.	.	.	.	.	.	.	.	.	.	.	.	.	.	.	.	16A/Jk	.	16cc#\Jk	.
.	.	.	.	.	.	.	.	.	.	.	.	.	.	.	.	.	.	.	.	.	.	4c#/	.	4e\	.
4r	.	4r	.	.	.	.	.	.	.	.	.	.	.	.	.	.	.	.	.	4r	4r	4r	.	4r	.
=5	=5	=5	=5	=5	=5	=5	=5	=5	=5	=5	=5	=5	=5	=5	=5	=5	=5	=5	=5	=5	=5	=5	=5	=5	=5
!	!	!	!	!	!	!	!	!	!	!	!	!	!	!	!	!	!	!	!	!	!	!LO:LB:g=original	!	!	!
!LO:TX:a:t=4.	!	!LO:TX:a:t=3.	!	!	!	!	!	!	!	!	!	!	!	!	!	!	!	!	!	!LO:TX:a:t=6.	!LO:TX:a:t=6	!LO:TX:a:t=5	!	!LO:TX:a:t=5	!
*	*	*	*	*	*	*	*	*2\right	*	*	*2\right	*	*	*2\right	*	*	*2\right	*	*	*	*	*	*	*	*
!LO:N:vis=00	!	!LO:N:vis=0	!	!LO:N:vis=0	!	!LO:N:vis=0	!	!	!	!LO:DY:b:rj	!LO:TX:a:i:t=dol	!	!LO:DY:b:rj:t=p&colon;	!LO:TX:a:i:t=dolc..	!	!	!LO:TX:a:i:t=dol.	!	!	!LO:N:vis=00	!LO:N:vis=00	!LO:N:vis=00	!	!LO:N:vis=00	!
0.r	.	1.r	.	1.r	.	1.r	.	2.A\	A-	p	(2c#\	A-	p	2.a\	A-	.	(2ee\	A-	.	0.r	0.r	0.r	.	0.r	.
*	*	*	*	*	*	*	*	*	*	*	*4\right	*	*	*	*	*	*4\right	*	*	*	*	*	*	*	*
.	.	.	.	.	.	.	.	.	.	.	4A\)	.	.	.	.	.	4cc#\)	.	.	.	.	.	.	.	.
=6	=6	=6	=6	=6	=6	=6	=6	=6	=6	=6	=6	=6	=6	=6	=6	=6	=6	=6	=6	=6	=6	=6	=6	=6	=6
.	.	.	.	.	.	.	.	(2A\	-ve	.	(2c#\	-ve	.	2.a\	-ve	.	2a\	.	.	.	.	.	.	.	.
*	*	*	*	*	*	*	*	*4\right	*	*	*	*	*	*	*	*	*	*	*	*	*	*	*	*	*
.	.	.	.	.	.	.	.	4F#\)	.	.	4f#\)	.	.	.	.	.	4cc#\	-ve	.	.	.	.	.	.	.
=7	=7	=7	=7	=7	=7	=7	=7	=7	=7	=7	=7	=7	=7	=7	=7	=7	=7	=7	=7	=7	=7	=7	=7	=7	=7
.	.	2.r	.	2.r	.	2.r	.	2D\	Ma-	.	2f#\	Ma-	.	2a\	Ma-	.	2dd\	Ma-	.	.	.	.	.	.	.
*	*	*	*	*	*	*	*	*	*	*	*	*	*	*4\right	*	*	*	*	*	*	*	*	*	*	*
.	.	.	.	.	.	.	.	4D\	-ris	.	4d\	-ris	.	4f#\	-ris	.	4b\	-ris	.	.	.	.	.	.	.
=8	=8	=8	=8	=8	=8	=8	=8	=8	=8	=8	=8	=8	=8	=8	=8	=8	=8	=8	=8	=8	=8	=8	=8	=8	=8
.	.	4r	.	4r	.	4r	.	4E\	stel-	.	4d\	stel-	.	4e\	stel-	.	4g#\	stel-	.	.	.	.	.	.	.
.	.	8r	.	8r	.	8r	.	4AA/	-la	.	4c#\	-la	.	4e\	-la	.	4a\	-la	.	.	.	.	.	.	.
*	*	*	*	*	*	*8\right	*	*	*	*	*	*	*	*	*	*	*	*	*	*	*	*	*	*	*
!	!	!LO:TX:b:t=a	!	!	!	!	!	!	!	!	!	!	!	!	!	!	!	!	!	!	!	!	!	!	!
.	.	8A/L	.	8a/L	.	8a\L	<	.	.	.	.	.	.	.	.	.	.	.	.	.	.	.	.	.	.
!	!	!LO:TX:b:t=g	!	!	!	!	!	!	!	!	!	!	!	!	!	!	!	!	!LO:DY:a	!	!	!	!	!	!
.	.	8G#/	.	8g#/	.	8b\	.	4r	.	.	4r	.	.	4r	.	.	4r	.	mf	.	.	.	.	.	.
!	!	!LO:TX:b:t=a	!	!	!	!	!LO:DY:b	!	!	!	!	!	!	!	!	!	!	!	!	!	!	!	!	!	!
.	.	8A/J	.	8a/J	.	8cc#\J	mf [	.	.	.	.	.	.	.	.	.	.	.	.	.	.	.	.	.	.
=9	=9	=9	=9	=9	=9	=9	=9	=9	=9	=9	=9	=9	=9	=9	=9	=9	=9	=9	=9	=9	=9	=9	=9	=9	=9
!	!	!LO:LB:g=original	!	!	!	!	!	!	!	!	!LO:LB:g=original	!	!	!	!	!	!	!	!	!	!	!	!	!	!
*tremolo	*	*	*	*8\right	*	*	*	*	*	*	*8\right	*	*	*	*	*	*8\right	*	*	*	*	*	*	*	*
!	!	!LO:TX:b:t=h	!	!	!	!	!	!	!	!LO:DY:t=mf.	!	!	!	!	!	!LO:DY:t=mf.	!	!	!	!LO:N:vis=0	!LO:N:vis=0	!	!	!	!
8E\L	.	8B/L	.	8b'\L	.	8dd\L	.	4.E\	De-	mf	8B\	De-	.	4.e\	De-	mf	8dd\	De-	.	1.r	1.r	2.r	.	2.r	.
8E\	.	8A#X/J	.	8a#X'\J	.	8cc#\J	.	.	.	.	8A#X\	-i	.	.	.	.	8cc#\	-i	.	.	.	.	.	.	.
*	*	*2\right	*	*	*	*4\right	*	*	*	*	*	*	*	*	*	*	*	*	*	*	*	*	*	*	*
8E\	.	2e\	.	(8b/L	.	4.dd\	.	.	.	.	4.B\	Ma-	.	.	.	.	4.dd\	Ma-	.	.	.	.	.	.	.
*	*	*	*	*	*	*	*	*8\right	*	*	*	*	*	*8\right	*	*	*	*	*	*	*	*	*	*	*
8E\	.	.	.	8g#/	.	.	.	8E\	-i	.	.	.	.	8e\	-i	.	.	.	.	.	.	.	.	.	.
8E\	.	.	.	8e/	.	.	.	8E\	Ma-	.	.	.	.	8e\	Ma-	.	.	.	.	.	.	.	.	.	.
8E\J	.	.	.	8g#/J)	.	8bb\	.	8E\	-ter	.	8B\	-ter	.	8g#\	-ter	.	8ee\	-ter	.	.	.	.	.	.	.
=10	=10	=10	=10	=10	=10	=10	=10	=10	=10	=10	=10	=10	=10	=10	=10	=10	=10	=10	=10	=10	=10	=10	=10	=10	=10
!	!	!	!	!	!	!	!	!LO:LB:g=original	!	!	!	!	!	!LO:LB:g=original	!	!	!LO:LB:g=original	!	!	!	!	!	!	!	!
8E\L	.	[2.e\	.	8a'/L	.	8cc#\L	.	2E\	al-	.	4A\	al-	.	8a\L	al-	.	4cc#\	al-	.	.	.	4r	.	4r	.
*	*	*	*	*	*	*16\right	*	*	*	*	*	*	*	*	*	*	*	*	*	*	*	*	*	*	*
8E\	.	.	.	8e'/J	.	(16gg#\L	.	.	.	.	.	.	.	8e\J	.	.	.	.	.	.	.	.	.	.	.
*	*	*	*	*	*	*16\left	*	*	*	*	*	*	*	*	*	*	*	*	*	*	*	*	*	*	*
.	.	.	.	.	.	16aa\JJ)	.	.	.	.	.	.	.	.	.	.	.	.	.	.	.	.	.	.	.
8E\	.	.	.	(8c#/L	.	8ee'\L	.	.	.	.	8A\	-ma	.	8e\	-ma	.	8cc#\	-ma	.	.	.	8r	.	8r	.
!	!	!	!	!	!	!	!	!	!	!	!	!	!	!	!	!	!	!	!	!	!	!	!	!	!LO:DY:t=fr.
.	.	.	.	.	.	.	.	.	.	.	.	.	.	.	.	.	.	.	.	.	.	.	.	.	f
8E\	.	.	.	8a/	.	(8a\	.	.	.	.	8r	.	.	8r	.	.	8r	.	.	.	.	8c#/L	.	8a\L	.
8E\	.	.	.	8g#/	.	8b\	.	4E\	-ma	.	4r	.	.	4r	.	.	4r	.	.	.	.	8e/	.	8b\	.
8E\J	.	.	.	8a/J)	.	8cc#\J)	.	.	.	.	.	.	.	.	.	.	.	.	.	.	.	8a/J	.	8cc#\J	.
=11	=11	=11	=11	=11	=11	=11	=11	=11	=11	=11	=11	=11	=11	=11	=11	=11	=11	=11	=11	=11	=11	=11	=11	=11	=11
!LO:LB:g=original	!	!	!	!	!	!	!	!	!	!	!	!	!	!	!	!	!	!	!	!	!	!	!	!	!
*	*	*	*	*	*	*	*	*	*	*	*	*	*	*	*	*	*	*	*	*2\right	*	*	*	*	*
8E\L	.	2.e\]	.	8b/L	.	8dd\L	.	4.E\	at-	.	8d\	at-	.	4.e\	at-	.	8b\	at-	.	2.e\	2.e\	8cc#\L	.	8dd\L	.
8E\	.	.	.	8a#X/J	.	8cc#\J	.	.	.	.	8d\	-que	.	.	.	.	8a#X\	-que	.	.	.	8a#X\J	.	8cc#\J	.
*	*	*	*	*	*	*	*	*	*	*	*	*	*	*	*	*	*	*	*	*	*	*2\right	*	*2\right	*
8E\	.	.	.	8b/L	.	4.dd\	.	.	.	.	4.d\	sem-	.	.	.	.	4.b\	sem-	.	.	.	2b\	.	2dd\	.
8E\	.	.	.	8g#/	.	.	.	8E\	-que	.	.	.	.	8e\	-que	.	.	.	.	.	.	.	.	.	.
8E\	.	.	.	8e/	.	.	.	8E\	sem-	.	.	.	.	8e\	sem-	.	.	.	.	.	.	.	.	.	.
8E\J	.	.	.	8g#/J	.	8bb\	.	8E\	-per	.	8e\	-per	.	8g#\	-per	.	8b\	-per	.	.	.	.	.	.	.
=12	=12	=12	=12	=12	=12	=12	=12	=12	=12	=12	=12	=12	=12	=12	=12	=12	=12	=12	=12	=12	=12	=12	=12	=12	=12
!	!	!	!	!LO:LB:g=original	!	!LO:LB:g=original	!	!	!	!	!	!	!	!	!	!	!	!	!	!	!	!	!	!	!
8A\L	.	2.e\	.	8a/L	.	8cc#\L	.	4A\	Vir-	.	4c#\	Vir-	.	8a\L	Vir-	.	4a\	Vir-	.	2.A/	2.e\	4a\	.	2cc#\	.
*	*	*	*	*	*	*16\right	*	*	*	*	*	*	*	*	*	*	*	*	*	*	*	*	*	*	*
8A\	.	.	.	8e/J	.	(16gg#\L	.	.	.	.	.	.	.	8e\J	.	.	.	.	.	.	.	.	.	.	.
*	*	*	*	*	*	*16\left	*	*	*	*	*	*	*	*	*	*	*	*	*	*	*	*	*	*	*
.	.	.	.	.	.	16aa\JJ)	.	.	.	.	.	.	.	.	.	.	.	.	.	.	.	.	.	.	.
8A\	.	.	.	8c#/L	.	8ee\L	.	8A\	-go	.	8c#\	-go	.	8e\	-go	.	8a\	-go	.	.	.	4r	.	.	.
8A\	.	.	.	8e/	.	8a\	.	8r	.	.	8r	.	.	8r	.	.	8r	.	.	.	.	.	.	.	.
8A\	.	.	.	8a/	.	8cc#\	.	4r	.	.	4r	.	.	4r	.	.	4r	.	.	.	.	4cc#\	.	4ee\	.
8A\J	.	.	.	8cc#/J	.	8ee\J	.	.	.	.	.	.	.	.	.	.	.	.	.	.	.	.	.	.	.
=13	=13	=13	=13	=13	=13	=13	=13	=13	=13	=13	=13	=13	=13	=13	=13	=13	=13	=13	=13	=13	=13	=13	=13	=13	=13
*	*	*	*	*16\right	*	*16\right	*	*	*	*	*	*	*	*	*	*	*4\left	*	*	*	*	*	*	*4\left	*
8D\L	.	2d\	.	(16dd\LL	.	(16ff#\LL	.	4D\	Fe-	.	4.d\	Fe-	.	4.a\	Fe-	.	4.ff#\	Fe-	.	2d\	2f#\	4.dd\	.	4.ff#\	.
.	.	.	.	16f#\	.	16a\	.	.	.	.	.	.	.	.	.	.	.	.	.	.	.	.	.	.	.
8D\	.	.	.	16a\	.	16dd\	.	.	.	.	.	.	.	.	.	.	.	.	.	.	.	.	.	.	.
.	.	.	.	16cc#\JJ)	.	16ee\JJ)	.	.	.	.	.	.	.	.	.	.	.	.	.	.	.	.	.	.	.
8D\	.	.	.	8dd\L	.	8ff#\L	.	4D\	-lix	.	.	.	.	.	.	.	.	.	.	.	.	.	.	.	.
8D\J	.	.	.	8cc#\	.	8ee\	.	.	.	.	8c#\	-lix	.	8a\	-lix	.	8ee\	-lix	.	.	.	8cc#\L	.	8ee\L	.
*	*	*8\right	*	*	*	*	*	*	*	*	*	*	*	*	*	*	*	*	*	*	*	*	*	*	*
8D\L	.	8d\L	.	8b\	.	8dd\	.	8D\	Coe-	.	8B\	coe-	.	8f#\	Coe-	.	8dd\	Coe-	.	4r	4r	8b\	.	8dd\	.
8D#X\J	.	8d#X\J	.	8a\J	.	8cc#\J	.	8D#X\	-li	.	8A\	-li	.	8f#\	-li	.	8cc#\	-li	.	.	.	8a\J	.	8cc#\J	.
=14	=14	=14	=14	=14	=14	=14	=14	=14	=14	=14	=14	=14	=14	=14	=14	=14	=14	=14	=14	=14	=14	=14	=14	=14	=14
!	!	!	!	!	!	!	!	!	!	!	!LO:LB:g=original	!	!	!	!	!	!	!	!	!	!	!	!	!	!
8E\L	.	8e\L	.	16g#/LL	.	4.b\	.	2E\	por-	.	2G#\	por-	.	2b\	por-	.	2b\	por-	.	4r	4r	2g#\	.	2b\	.
.	.	.	.	16e/	.	.	.	.	.	.	.	.	.	.	.	.	.	.	.	.	.	.	.	.	.
8E\	.	8d#X\J	.	16B/	.	.	.	.	.	.	.	.	.	.	.	.	.	.	.	.	.	.	.	.	.
.	.	.	.	16e/JJ	.	.	.	.	.	.	.	.	.	.	.	.	.	.	.	.	.	.	.	.	.
*	*	*4\right	*	*	*	*	*	*	*	*	*	*	*	*	*	*	*	*	*	*	*	*	*	*	*
8E\	.	4e\	.	8g#/L	.	.	.	.	.	.	.	.	.	.	.	.	.	.	.	4e\	4e\	.	.	.	.
8E\	.	.	.	8e/	.	8g#\L	.	.	.	.	.	.	.	.	.	.	.	.	.	.	.	.	.	.	.
8E\	.	4E/	.	8g#/	.	8b\	.	4E\	-ta	.	4e\	-ta	.	8g#\L	-ta	.	8b\L	.	.	4e\	4e\	8g#\L	.	8b\L	.
8E\J	.	.	.	8a/J	.	8cc#\J	.	.	.	.	.	.	.	8a\J	.	.	8cc#\J	-ta	.	.	.	8a\J	.	8cc#\J	.
=15	=15	=15	=15	=15	=15	=15	=15	=15	=15	=15	=15	=15	=15	=15	=15	=15	=15	=15	=15	=15	=15	=15	=15	=15	=15
!	!	!	!	!	!	!	!	!LO:LB:g=original	!	!	!	!	!	!LO:LB:g=original	!	!	!LO:LB:g=original	!	!	!LO:LB:g=original	!LO:LB:g=original	!	!	!LO:LB:g=original	!
*	*	*	*	*	*	*	*	*	*	*	*	*	*	*4\left	*	*	*4\right	*	*	*	*	*	*	*4\right	*
8E\L	.	[2.E/	.	16g#/LL	.	16b\LL	.	4E\	Fe-	.	4.e\	Fe-	.	4.b\	Fe-	.	4.dd\	Fe-	.	2.e\	2.e\	4.b\	.	4.dd\	.
.	.	.	.	16e/	.	16g#\	.	.	.	.	.	.	.	.	.	.	.	.	.	.	.	.	.	.	.
8E\	.	.	.	16g#/	.	16a\	.	.	.	.	.	.	.	.	.	.	.	.	.	.	.	.	.	.	.
.	.	.	.	16a/JJ	.	16b\JJ	.	.	.	.	.	.	.	.	.	.	.	.	.	.	.	.	.	.	.
8E\	.	.	.	8b/L	.	8dd\L	.	4E\	-lix	.	.	.	.	.	.	.	.	.	.	.	.	.	.	.	.
8E\	.	.	.	8a/	.	8cc#\	.	.	.	.	8e\	-lix	.	8a\	-lix	.	8cc#\	-lix	.	.	.	8a\L	.	8cc#\L	.
8E\	.	.	.	8g#/	.	8b\	.	8E\	Coe-	.	8e\	coe-	.	8g#\	Coe-	.	8b\	Coe-	.	.	.	8g#\	.	8b\	.
8E\J	.	.	.	8f#/J	.	8a\J	.	8E\	-li	.	8e\	-li	.	8f#\	-li	.	8a\	-li	.	.	.	8f#\J	.	8a\J	.
=16	=16	=16	=16	=16	=16	=16	=16	=16	=16	=16	=16	=16	=16	=16	=16	=16	=16	=16	=16	=16	=16	=16	=16	=16	=16
!	!	!	!	!	!	!	!	!	!	!	!	!	!	!	!	!	!	!	!	!	!	!LO:LB:g=original	!	!	!
8E\L	.	2.E/_	.	16e/LL	.	16g#/LL	.	[2.E\	por-	.	(2B\	por-	.	2e\	por-	.	(2g#\	por-	.	2.e\	[2.e\	2e/	.	2.g#\	.
.	.	.	.	16G#/	.	16B/	.	.	.	.	.	.	.	.	.	.	.	.	.	.	.	.	.	.	.
8E\	.	.	.	16B/	.	16e/	.	.	.	.	.	.	.	.	.	.	.	.	.	.	.	.	.	.	.
.	.	.	.	16d#X/JJ	.	16f#/JJ	.	.	.	.	.	.	.	.	.	.	.	.	.	.	.	.	.	.	.
8E\	.	.	.	16e/LL	.	16g#/LL	.	.	.	.	.	.	.	.	.	.	.	.	.	.	.	.	.	.	.
.	.	.	.	16G#/	.	16B/	.	.	.	.	.	.	.	.	.	.	.	.	.	.	.	.	.	.	.
8E\	.	.	.	16B/	.	16e/	.	.	.	.	.	.	.	.	.	.	.	.	.	.	.	.	.	.	.
.	.	.	.	16e/JJ	.	16g#/JJ	.	.	.	.	.	.	.	.	.	.	.	.	.	.	.	.	.	.	.
*	*	*	*	*	*	*	*	*	*	*	*	*	*	*4\right	*	*	*	*	*	*	*	*	*	*	*
8E\	.	.	.	16d#X/LL	.	16f#/LL	.	.	.	.	8B\L	.	.	4d#X\	-ta	.	4f#\	.	.	.	.	4d#X/	.	.	.
.	.	.	.	16A/	.	16B/	.	.	.	.	.	.	.	.	.	.	.	.	.	.	.	.	.	.	.
8E\J	.	.	.	16B/	.	16d#X/	.	.	.	.	8A\J)	.	.	.	.	.	.	.	.	.	.	.	.	.	.
.	.	.	.	16c#/JJ	.	16f#/JJ	.	.	.	.	.	.	.	.	.	.	.	.	.	.	.	.	.	.	.
=17	=17	=17	=17	=17	=17	=17	=17	=17	=17	=17	=17	=17	=17	=17	=17	=17	=17	=17	=17	=17	=17	=17	=17	=17	=17
!	!	!	!	!LO:LB:g=original	!	!LO:LB:g=original	!	!	!	!	!	!	!	!	!	!	!	!	!	!	!	!	!	!	!
8E\L	.	2.E/]	.	8B/L	.	16e/LL	.	2.E\]	por-	.	2G#/	.	.	2B/	por-	.	2e/)	.	.	2.e\	2.e\]	2G#/	.	2e/	.
.	.	.	.	.	.	(16G#/	.	.	.	.	.	.	.	.	.	.	.	.	.	.	.	.	.	.	.
8E\	.	.	.	8G#/J	.	16B/	.	.	.	.	.	.	.	.	.	.	.	.	.	.	.	.	.	.	.
.	.	.	.	.	.	16e/JJ)	.	.	.	.	.	.	.	.	.	.	.	.	.	.	.	.	.	.	.
8E\	.	.	.	8B/L	.	16g#/LL	.	.	.	.	.	.	.	.	.	.	.	.	.	.	.	.	.	.	.
.	.	.	.	.	.	16e/	.	.	.	.	.	.	.	.	.	.	.	.	.	.	.	.	.	.	.
8E\	.	.	.	8e/J	.	16B/	.	.	.	.	.	.	.	.	.	.	.	.	.	.	.	.	.	.	.
.	.	.	.	.	.	16G#/JJ	.	.	.	.	.	.	.	.	.	.	.	.	.	.	.	.	.	.	.
8E\	.	.	.	8A/L	.	(16f#/LL	.	.	.	.	8F#/L	.	.	(8A/L	.	.	8d#X/L	.	.	.	.	8F#/L	.	8d#X/L	.
.	.	.	.	.	.	16d#X/	.	.	.	.	.	.	.	.	.	.	.	.	.	.	.	.	.	.	.
8E\J	.	.	.	8G#/J	.	16e/	.	.	.	.	8E/J	.	.	8G#/J	.	.	8e/J	.	.	.	.	8G#/J	.	8e/J	.
.	.	.	.	.	.	16B/JJ)	.	.	.	.	.	.	.	.	.	.	.	.	.	.	.	.	.	.	.
*Xtremolo	*	*	*	*	*	*	*	*	*	*	*	*	*	*	*	*	*	*	*	*	*	*	*	*	*
=18	=18	=18	=18	=18	=18	=18	=18	=18	=18	=18	=18	=18	=18	=18	=18	=18	=18	=18	=18	=18	=18	=18	=18	=18	=18
!	!	!LO:LB:g=original	!	!	!	!	!	!	!	!	!	!	!	!	!	!	!	!	!	!	!	!	!	!	!
2E\	.	2E/	.	2G#/	.	2e/	.	2E\	-ta.	.	2E/	-ta	.	2G#/)	-ta.	.	2f#/	-ta	.	2e\	2e\	4.G#/	.	4.e/	.
*	*	*	*	*	*	*	*	*	*	*	*	*	*	*	*	*	*	*	*	*	*	*16\right	*	*	*
.	.	.	.	.	.	.	.	.	.	.	.	.	.	.	.	.	.	.	.	.	.	16e\LL	.	16f#/LL	.
.	.	.	.	.	.	.	.	.	.	.	.	.	.	.	.	.	.	.	.	.	.	16f#\JJ	.	16g#/JJ	.
4r	.	4r	.	4r	.	4r	.	4r	.	.	4r	.	.	4r	.	.	4r	.	.	4r	4r	16f##X\LL	.	(16a#X\LL	.
.	.	.	.	.	.	.	.	.	.	.	.	.	.	.	.	.	.	.	.	.	.	16g#\	.	16b\	.
.	.	.	.	.	.	.	.	.	.	.	.	.	.	.	.	.	.	.	.	.	.	16a\	.	16cc#\	.
.	.	.	.	.	.	.	.	.	.	.	.	.	.	.	.	.	.	.	.	.	.	16g#\JJ	.	16b\JJ)	.
=19	=19	=19	=19	=19	=19	=19	=19	=19	=19	=19	=19	=19	=19	=19	=19	=19	=19	=19	=19	=19	=19	=19	=19	=19	=19
*	*	*	*	*	*	*	*	*	*	*	*	*	*	*	*	*	*	*	*	*8\right	*8\right	*	*	*	*
!LO:TX:a:t=2.	!	!	!	!	!	!	!	!LO:TX:a:t=2.	!	!	!LO:TX:a:t=2	!	!	!LO:TX:a:t=2	!	!	!LO:TX:a:t=2	!	!	!	!	!	!	!	!
!LO:N:vis=0	!	!	!	!	!LO:DY:b	!	!	!LO:N:vis=0	!	!	!LO:N:vis=0	!	!	!LO:N:vis=0	!	!	!LO:N:vis=0	!	!	!	!	!	!	!	!
1.r	.	4r	.	4r	p	4r	.	1.r	.	.	1.r	.	.	1.r	.	.	1.r	.	.	8.e\L	8.e\L	8.g#\L	.	8.b\L	.
*	*	*	*	*	*	*	*	*	*	*	*	*	*	*	*	*	*	*	*	*16\right	*16\right	*	*	*	*
.	.	.	.	.	.	.	.	.	.	.	.	.	.	.	.	.	.	.	.	16e\Jk	16e\Jk	16e\Jk	.	16g#\Jk	.
.	.	4r	.	4r	.	4r	.	.	.	.	.	.	.	.	.	.	.	.	.	4e\	4e\	4g#\	.	4b\	.
!	!	!	!LO:DY:b	!	!	!	!	!	!	!	!	!	!	!	!	!	!	!	!	!	!	!	!	!	!
.	.	.	p	.	.	.	.	.	.	.	.	.	.	.	.	.	.	.	.	.	.	.	.	.	.
.	.	8e\L	.	8e/L	.	8e/L	.	.	.	.	.	.	.	.	.	.	.	.	.	4r	4r	4r	.	4r	.
.	.	8d#X\J	.	8d#X/J	.	8d#X/J	.	.	.	.	.	.	.	.	.	.	.	.	.	.	.	.	.	.	.
=20	=20	=20	=20	=20	=20	=20	=20	=20	=20	=20	=20	=20	=20	=20	=20	=20	=20	=20	=20	=20	=20	=20	=20	=20	=20
!	!	!	!	!	!	!	!	!	!	!	!	!	!	!	!	!	!	!	!	!	!	!LO:TX:a:t=P:problem=dodany ołówkiem takt	!	!	!LO:DY:rj:t=p:
.	.	4e\	.	4e/	.	4e/	.	.	.	.	.	.	.	.	.	.	.	.	.	8.e\L	8.e\L	2.ryy	.	8.dd\L	p
.	.	.	.	.	.	.	.	.	.	.	.	.	.	.	.	.	.	.	.	16e\Jk	16e\Jk	.	.	16b\Jk	.
!	!	!	!	!	!	!	!LO:DY:b	!	!	!	!	!	!	!	!	!	!	!	!	!	!	!	!	!	!
.	.	4r	.	4r	.	4r	p	.	.	.	.	.	.	.	.	.	.	.	.	4e\	4e\	.	.	4dd\	.
.	.	8e\L	.	8e/L	.	8e/L	.	.	.	.	.	.	.	.	.	.	.	.	.	4r	4r	.	.	4r	.
.	.	8d#X\J	.	8d#X/J	.	8d#X/J	.	.	.	.	.	.	.	.	.	.	.	.	.	.	.	.	.	.	.
=21	=21	=21	=21	=21	=21	=21	=21	=21	=21	=21	=21	=21	=21	=21	=21	=21	=21	=21	=21	=21	=21	=21	=21	=21	=21
!LO:LB:g=original	!	!	!	!	!	!	!	!	!	!	!LO:LB:g=original	!	!	!	!	!	!	!	!	!	!	!LO:LB:g=original	!	!LO:LB:g=original	!
!	!	!	!	!	!	!	!	!	!	!	!	!	!	!	!	!	!	!	!	!LO:TX:a:t=6.	!LO:TX:a:t=6.	!LO:TX:a:t=5.	!	!LO:TX:a:t=5.	!
!	!	!	!	!	!	!	!	!LO:TX:a:i:t=dol.	!	!	!	!	!	!LO:TX:b:i:t=dolce	!	!	!	!	!LO:DY:b:rj:t=p:	!LO:N:vis=00	!LO:N:vis=00	!LO:N:vis=00	!	!LO:N:vis=00	!
8AA/L	.	4e\	.	4e/	.	4e/	.	2.A\	Su-	.	(2c#\	Su-	.	2.a\	Su-	.	(2ee\	Su-	p	0.r	0.r	0.r	.	0.r	.
8GG#X/J	.	.	.	.	.	.	.	.	.	.	.	.	.	.	.	.	.	.	.	.	.	.	.	.	.
4AA/	.	4r	.	4r	.	4r	.	.	.	.	.	.	.	.	.	.	.	.	.	.	.	.	.	.	.
!	!	!	!	!	!	!	!	!	!	!	!	!	!	!	!	!	!LO:SIC:l:s=-mens:v	!	!	!	!	!	!	!	!
4r	.	4r	.	4r	.	4r	.	.	.	.	4A\)	.	.	.	.	.	4cc#\	-men	.	.	.	.	.	.	.
=22	=22	=22	=22	=22	=22	=22	=22	=22	=22	=22	=22	=22	=22	=22	=22	=22	=22	=22	=22	=22	=22	=22	=22	=22	=22
*	*	*	*	*	*	*	*	*	*	*	*	*	*	*	*	*	*	*ij	*	*	*	*	*	*	*
!LO:TX:a:t=3.	!	!LO:TX:a:t=3.	!	!LO:TX:a:t=2.	!	!LO:TX:a:t=2.	!	!	!	!	!	!	!	!	!	!	!	!	!	!	!	!	!	!	!
!LO:N:vis=0	!	!LO:N:vis=0	!	!LO:N:vis=0	!	!LO:N:vis=0	!	!	!	!	!	!	!	!	!	!	!	!	!	!	!	!	!	!	!
1.r	.	1.r	.	1.r	.	1.r	.	2A\	-mens	.	(2c#\	-mens	.	2.a\	-mens	.	2a\	su-	.	.	.	.	.	.	.
!	!	!	!	!	!	!	!	!	!	!	!	!	!	!	!	!	!LO:SIC:l:s=-mens:v	!	!	!	!	!	!	!	!
.	.	.	.	.	.	.	.	4F#\	.	.	4f#\)	.	.	.	.	.	4cc#\)	-men	.	.	.	.	.	.	.
*	*	*	*	*	*	*	*	*	*	*	*	*	*	*	*	*	*	*Xij	*	*	*	*	*	*	*
=23	=23	=23	=23	=23	=23	=23	=23	=23	=23	=23	=23	=23	=23	=23	=23	=23	=23	=23	=23	=23	=23	=23	=23	=23	=23
!	!	!	!	!	!	!	!	!	!	!	!	!	!	!LO:LB:g=original	!	!	!LO:LB:g=original	!	!	!	!	!	!	!	!
.	.	.	.	.	.	.	.	2D\	il-	.	2f#\	il-	.	2a\	il-	.	2dd\	il-	.	.	.	.	.	.	.
.	.	.	.	.	.	.	.	4D\	-lud	.	4d\	-lud	.	4f#\	-lud	.	4b\	-lud	.	.	.	.	.	.	.
=24	=24	=24	=24	=24	=24	=24	=24	=24	=24	=24	=24	=24	=24	=24	=24	=24	=24	=24	=24	=24	=24	=24	=24	=24	=24
!	!	!	!	!	!	!	!	!LO:LB:g=original	!	!	!	!	!	!	!	!	!	!	!	!	!	!	!	!	!
2.r	.	2.r	.	4r	.	4r	.	4E\	a-	.	4d\	a-	.	4d\	a-	.	4g#\	a-	.	.	.	.	.	.	.
.	.	.	.	8r	.	8r	.	4AA/	-ve	.	4c#\	-ve	.	4d\	-ve	.	4a\	-ve	.	.	.	.	.	.	.
!	!	!	!	!	!LO:DY:a	!	!LO:DY:a	!	!	!	!	!	!	!	!	!	!	!	!	!	!	!	!	!	!
.	.	.	.	8a/L	<	8a/L	<	.	.	.	.	.	.	.	.	.	.	.	.	.	.	.	.	.	.
.	.	.	.	8g#/	.	8b/	.	4r	.	.	4r	.	.	4r	.	.	4r	.	.	.	.	.	.	.	.
.	.	.	.	8a/J	[[	8cc#/J	[[	.	.	.	.	.	.	.	.	.	.	.	.	.	.	.	.	.	.
=25	=25	=25	=25	=25	=25	=25	=25	=25	=25	=25	=25	=25	=25	=25	=25	=25	=25	=25	=25	=25	=25	=25	=25	=25	=25
!	!	!	!	!LO:LB:g=original	!	!LO:LB:g=original	!	!	!	!	!	!	!	!	!	!	!	!	!	!	!	!	!	!	!
!	!	!	!	!	!	!	!	!	!	!	!	!	!	!	!	!	!	!	!	!LO:N:vis=0	!LO:N:vis=0	!	!	!	!
*tremolo	*	*	*	*	*	*	*	*	*	*	*	*	*	*	*	*	*	*	*	*	*	*	*	*	*
8E\L	.	[2.e\	.	8b'/L	.	8dd\L	.	4.E\	Ga-	.	8B\	Ga-	.	4.e\	Ga-	.	8dd\	Ga-	.	1.r	1.r	2.r	.	2.r	.
8E\	.	.	.	8a#X'/J	.	8cc#\J	.	.	.	.	8A#X\	-bri-	.	.	.	.	8cc#\	-bri-	.	.	.	.	.	.	.
!	!	!	!	!	!	!	!	!	!	!	!LO:SIC:l:s=-e-:v	!	!	!	!	!	!	!	!	!	!	!	!	!	!
8E\	.	.	.	(8b/L	.	4.dd\	.	.	.	.	4.B\	-el-	.	.	.	.	4.dd\	-e-	.	.	.	.	.	.	.
8E\	.	.	.	8g#/	.	.	.	8E\	-bri-	.	.	.	.	8e\	-bri-	.	.	.	.	.	.	.	.	.	.
8E\	.	.	.	8e/	.	.	.	8E\	-e-	.	.	.	.	8e\	-e-	.	.	.	.	.	.	.	.	.	.
8E\J	.	.	.	8g#/J)	.	8bb\	.	8E\	-lis	.	8B\	-lis	.	8g#\	-lis	.	8ee\	-lis	.	.	.	.	.	.	.
=26	=26	=26	=26	=26	=26	=26	=26	=26	=26	=26	=26	=26	=26	=26	=26	=26	=26	=26	=26	=26	=26	=26	=26	=26	=26
8E\L	.	2.e\_	.	8a/L	.	8cc#\L	.	2E\	o-	.	4A\	o-	.	(8a\L	o-	.	4cc#\	o-	.	.	.	4r	.	4r	.
8E\	.	.	.	8e/J	.	(16gg#\L	.	.	.	.	.	.	.	8e\J)	-re	.	.	.	.	.	.	.	.	.	.
*	*	*	*	*	*	*16\left	*	*	*	*	*	*	*	*	*	*	*	*	*	*	*	*	*	*	*
.	.	.	.	.	.	16aa\JJ)	.	.	.	.	.	.	.	.	.	.	.	.	.	.	.	.	.	.	.
8E\	.	.	.	(8c#/L	.	8ee'\L	.	.	.	.	8A\	-re	.	8e\	.	.	8cc#\	-re	.	.	.	8r	.	8r	.
8E\	.	.	.	8a/	.	(8a\	.	.	.	.	8r	.	.	8r	.	.	8r	.	.	.	.	8c#/L	.	8a\L	.
8E\	.	.	.	8g#/	.	8b\	.	4E\	-re	.	4r	.	.	4r	.	.	4r	.	.	.	.	8e/	.	8b\	.
8E\J	.	.	.	8a/J)	.	8cc#\J)	.	.	.	.	.	.	.	.	.	.	.	.	.	.	.	8a/J	.	8cc#\J	.
=27	=27	=27	=27	=27	=27	=27	=27	=27	=27	=27	=27	=27	=27	=27	=27	=27	=27	=27	=27	=27	=27	=27	=27	=27	=27
!	!	!	!	!	!	!	!	!	!	!	!LO:LB:g=original	!	!	!	!	!	!	!	!	!	!LO:LB:g=original	!LO:LB:g=original	!	!	!
8F#\L	.	2.e\_	.	8b/L	.	8dd\L	.	4.E\	fun-	.	8d\	fun-	.	8e\	fun-	.	8b\	fun-	.	2.e\	2.e\	8b\L	.	8dd\L	.
8F#\	.	.	.	8a#X/J	.	8cc#\J	.	.	.	.	8c#\	-da	.	8e\	-da	.	8a#X\	-da	.	.	.	8a#X\J	.	8cc#\J	.
8F#\	.	.	.	(8b/L	.	4.dd\	.	.	.	.	4.d\	nos	.	4.e\	nos	.	4.b\	nos	.	.	.	2b\	.	2dd\	.
8F#\	.	.	.	8g#/	.	.	.	8E\	-da	.	.	.	.	.	.	.	.	.	.	.	.	.	.	.	.
8F#\	.	.	.	8e/	.	.	.	8E\	nos	.	.	.	.	.	.	.	.	.	.	.	.	.	.	.	.
8F#\J	.	.	.	8g#/J)	.	8bb\	.	8E\	in	.	8e\	in	.	8g#\	in	.	8b\	in	.	.	.	.	.	.	.
=28	=28	=28	=28	=28	=28	=28	=28	=28	=28	=28	=28	=28	=28	=28	=28	=28	=28	=28	=28	=28	=28	=28	=28	=28	=28
!	!	!	!	!	!	!	!	!	!	!	!	!	!	!LO:LB:g=original	!	!	!	!	!	!	!	!	!	!	!
8A\L	.	2.e\]	.	8a/L	.	8cc#'\L	.	4A\	pa-	.	4c#\	pa-	.	8g#\L	pa-	.	4a\	pa-	.	2.A/	2.e\	2a\	.	2cc#\	.
*	*	*	*	*	*	*16\right	*	*	*	*	*	*	*	*	*	*	*	*	*	*	*	*	*	*	*
8A\	.	.	.	8e/J	.	(16gg#\L	.	.	.	.	.	.	.	8e\J	.	.	.	.	.	.	.	.	.	.	.
*	*	*	*	*	*	*16\left	*	*	*	*	*	*	*	*	*	*	*	*	*	*	*	*	*	*	*
.	.	.	.	.	.	16aa\JJ)	.	.	.	.	.	.	.	.	.	.	.	.	.	.	.	.	.	.	.
8A\	.	.	.	8c#/L	.	(8ee\L	.	4A\	-ce	.	8c#\	-ce	.	8e\	-ce	.	8a\	-ce	.	.	.	.	.	.	.
8A\	.	.	.	8e/	.	8a\	.	.	.	.	8r	.	.	8r	.	.	8r	.	.	.	.	.	.	.	.
8A\	.	.	.	8a/	.	8cc#\	.	4r	.	.	4r	.	.	4r	.	.	4r	.	.	.	.	4cc#\	.	4ee\	.
8A\J	.	.	.	8cc#/J	.	8ee\J)	.	.	.	.	.	.	.	.	.	.	.	.	.	.	.	.	.	.	.
*Xtremolo	*	*	*	*	*	*	*	*	*	*	*	*	*	*	*	*	*	*	*	*	*	*	*	*	*
=29	=29	=29	=29	=29	=29	=29	=29	=29	=29	=29	=29	=29	=29	=29	=29	=29	=29	=29	=29	=29	=29	=29	=29	=29	=29
!	!	!LO:LB:g=original	!	!	!	!	!	!LO:LB:g=original	!	!	!	!	!	!	!	!	!LO:LB:g=original	!	!	!LO:LB:g=original	!	!	!	!	!
*	*	*	*	*	*	*16\right	*	*	*	*	*	*	*	*	*	*	*8\left	*	*	*	*	*	*	*4\left	*
8D\L	.	4f# 4d\	.	16dd\LL	.	(16ff#\LL	.	8D\	mu-	.	8d\	mu-	.	8a\	mu-	.	8ff#\	mu-	.	4d\	4f#\	4dd\	.	4ff#\	.
.	.	.	.	16f#\	.	16a\	.	.	.	.	.	.	.	.	.	.	.	.	.	.	.	.	.	.	.
8D\J	.	.	.	16a\	.	16dd\	.	8D\	-tans	.	8f#\	-tans	.	8a\	-tans	.	8dd\	-tans	.	.	.	.	.	.	.
.	.	.	.	16dd\JJ	.	16ee\JJ)	.	.	.	.	.	.	.	.	.	.	.	.	.	.	.	.	.	.	.
*tremolo	*	*	*	*	*	*	*	*	*	*	*	*	*	*	*	*	*	*	*	*	*	*	*	*4\right	*
8E\L	.	4e 4c#\	.	8cc#\L	.	8ee\L	.	4E\	He-	.	4e\	He-	.	4a\	He-	.	4cc#\	He-	.	4A\	4e\	4a\	.	4cc#\	.
8E\	.	.	.	8a\	.	8cc#\	.	.	.	.	.	.	.	.	.	.	.	.	.	.	.	.	.	.	.
8E\	.	4d 4B\	.	8g#\	.	8a\	.	4E\	-vae	.	4e\	-vae	.	4g#\	-vae	.	4b\	-vae	.	4e\	4e\	4g#\	.	4b\	.
8E\J	.	.	.	8b\J	.	8dd\J	.	.	.	.	.	.	.	.	.	.	.	.	.	.	.	.	.	.	.
*Xtremolo	*	*	*	*	*	*	*	*	*	*	*	*	*	*	*	*	*	*	*	*	*	*	*	*	*
=30	=30	=30	=30	=30	=30	=30	=30	=30	=30	=30	=30	=30	=30	=30	=30	=30	=30	=30	=30	=30	=30	=30	=30	=30	=30
!LO:LB:g=original	!	!	!	!LO:LB:g=original	!	!LO:LB:g=original	!	!	!	!	!	!	!	!	!	!	!	!	!	!	!	!	!	!	!
8AA/L	.	8A/L	.	4a/	.	4cc#\	.	4AA/	no-	.	4e\	no-	.	4a\	no-	.	4cc#\	no-	.	4A/	4e\	4a\	.	4cc#\	.
8AA/J	.	8A/J	.	.	.	.	.	.	.	.	.	.	.	.	.	.	.	.	.	.	.	.	.	.	.
*	*	*	*	*	*	*	*	*	*	*	*	*	*	*	*	*	*8\right	*	*	*	*	*	*	*	*
4AA/	.	4A/	.	8a/	.	8cc#\	.	8AA/	-men	.	8e\	-men	.	8a\	-men	.	8cc#\	-men.	.	8A/	8e\	8a\	.	8cc#\	.
.	.	.	.	16a/LL	.	(16a\LL	.	8r	.	.	8r	.	.	8r	.	.	8r	.	.	8r	8r	8r	.	8r	.
.	.	.	.	16g#/JJ	.	16b\JJ)	.	.	.	.	.	.	.	.	.	.	.	.	.	.	.	.	.	.	.
4r	.	4r	.	16a/LL	.	(16cc#\LL	.	4r	.	.	4r	.	.	4r	.	.	4r	.	.	4r	4r	4r	.	4r	.
.	.	.	.	16b/	.	16dd\	.	.	.	.	.	.	.	.	.	.	.	.	.	.	.	.	.	.	.
.	.	.	.	16dd/	.	16ff#\	.	.	.	.	.	.	.	.	.	.	.	.	.	.	.	.	.	.	.
.	.	.	.	16cc#/JJ	.	16ee\JJ)	.	.	.	.	.	.	.	.	.	.	.	.	.	.	.	.	.	.	.
=31	=31	=31	=31	=31	=31	=31	=31	=31	=31	=31	=31	=31	=31	=31	=31	=31	=31	=31	=31	=31	=31	=31	=31	=31	=31
!	!	!	!	!	!	!	!	!	!	!	!	!	!	!	!	!	!	!	!	!LO:TX:a:t=2.	!LO:TX:a:t=2.	!LO:TX:a:t=1	!	!LO:TX:a:t=1.	!
!	!	!	!	!	!	!	!	!	!	!	!	!	!	!	!	!	!	!	!	!LO:N:vis=0	!LO:N:vis=0	!	!	!	!
*tremolo	*	*	*	*	*	*	*	*	*	*	*	*	*	*	*	*	*	*	*	*	*	*	*	*	*
8E\L	.	[2.e\	.	8b/L	.	8dd\L	.	4.E\	Sol-	.	8B\	Sol-	.	4.e\	Sol-	.	8dd\	Sol-	.	1.r	1.r	2.r	.	2.r	.
!	!	!	!	!	!	!	!	!	!	!	!LO:SIC:l:s=-ve:v	!	!	!	!	!	!	!	!	!	!	!	!	!	!
8E\	.	.	.	8a#X/J	.	8cc#\J	.	.	.	.	8A#X\	-oe	.	.	.	.	8cc#\	-ve	.	.	.	.	.	.	.
8E\	.	.	.	(8b/L	.	4.dd\	.	.	.	.	4.B\	vinc-	.	.	.	.	4.dd\	vinc-	.	.	.	.	.	.	.
8E\	.	.	.	8g#/	.	.	.	8E\	-ve	.	.	.	.	8e\	-ve	.	.	.	.	.	.	.	.	.	.
8E\	.	.	.	8e/	.	.	.	8E\	vinc-	.	.	.	.	8e\	vinc-	.	.	.	.	.	.	.	.	.	.
8E\J	.	.	.	8g#/J)	.	8bb\	.	8E\	-la	.	8B\	-la	.	8g#\	-la	.	8ee\	-la	.	.	.	.	.	.	.
=32	=32	=32	=32	=32	=32	=32	=32	=32	=32	=32	=32	=32	=32	=32	=32	=32	=32	=32	=32	=32	=32	=32	=32	=32	=32
!	!	!	!	!	!	!	!	!	!	!	!LO:LB:g=original	!	!	!	!	!	!	!	!	!	!	!	!	!LO:LB:g=original	!
8E\L	.	2.e\_	.	8a/L	.	8cc#\L	.	2E\	re	.	4A\	re-	.	8a\L	re-	.	4cc#\	re-	.	.	.	4r	.	4r	.
8E\	.	.	.	8e/J	.	16gg#\L	.	.	.	.	.	.	.	8e\J	.	.	.	.	.	.	.	.	.	.	.
*	*	*	*	*	*	*16\left	*	*	*	*	*	*	*	*	*	*	*	*	*	*	*	*	*	*	*
.	.	.	.	.	.	16aa\JJ	.	.	.	.	.	.	.	.	.	.	.	.	.	.	.	.	.	.	.
8E\	.	.	.	8c#/L	.	8ee\L	.	.	.	.	8A\	-is	.	8e\	-is	.	8cc#\	-is	.	.	.	8r	.	8r	.
8E\	.	.	.	(8a/	.	(8a\	.	.	.	.	8r	.	.	8r	.	.	8r	.	.	.	.	8c#/L	.	8a\L	.
8E\	.	.	.	8g#/	.	8b\	.	4E\	-is	.	4r	.	.	4r	.	.	4r	.	.	.	.	8e/	.	8b\	.
8E\J	.	.	.	8a/J)	.	8cc#\J)	.	.	.	.	.	.	.	.	.	.	.	.	.	.	.	8a/J	.	8cc#\J	.
=33	=33	=33	=33	=33	=33	=33	=33	=33	=33	=33	=33	=33	=33	=33	=33	=33	=33	=33	=33	=33	=33	=33	=33	=33	=33
!	!	!	!	!	!	!	!	!	!	!	!	!	!	!LO:LB:g=original	!	!	!	!	!	!	!	!	!	!	!
8E\L	.	2.e\]	.	8b/L	.	8dd\L	.	4.E\	Pro-	.	8d\	Pro-	.	4.e\	Pro-	.	8b\	Pro-	.	2.e\	2.e\	8b\L	.	8dd\L	.
8E\	.	.	.	8a#X/J	.	8cc#\J	.	.	.	.	8c#\	-fer	.	.	.	.	8a#X\	-fer	.	.	.	8a#X\J	.	8cc#\J	.
8E\	.	.	.	(8b/L	.	4.dd\	.	.	.	.	4.d\	lu-	.	.	.	.	4.b\	lu-	.	.	.	2b\	.	2dd\	.
8E\	.	.	.	8g#/	.	.	.	8E\	-fer	.	.	.	.	8e\	-fer	.	.	.	.	.	.	.	.	.	.
8E\	.	.	.	8e/	.	.	.	8E\	lu-	.	.	.	.	8e\	lu-	.	.	.	.	.	.	.	.	.	.
8E\J	.	.	.	8g#/J)	.	8bb\	.	8E\	-men	.	8e\	-men	.	8g#\	-men	.	8b\	-men	.	.	.	.	.	.	.
=34	=34	=34	=34	=34	=34	=34	=34	=34	=34	=34	=34	=34	=34	=34	=34	=34	=34	=34	=34	=34	=34	=34	=34	=34	=34
!	!	!	!	!	!	!	!	!LO:LB:g=original	!	!	!	!	!	!	!	!	!LO:LB:g=original	!	!	!	!	!LO:LB:g=original	!	!	!
8A\L	.	2.e\	.	8a/L	.	8cc#\L	.	4A\	cae-	.	4c#\	cae-	.	8a\L	cae-	.	4a\	cae-	.	2.A/	2.e\	2a\	.	2cc#\	.
*	*	*	*	*	*	*16\right	*	*	*	*	*	*	*	*	*	*	*	*	*	*	*	*	*	*	*
8A\	.	.	.	8e/J	.	16gg#\L	.	.	.	.	.	.	.	8e\J	.	.	.	.	.	.	.	.	.	.	.
*	*	*	*	*	*	*16\left	*	*	*	*	*	*	*	*	*	*	*	*	*	*	*	*	*	*	*
.	.	.	.	.	.	16aa\JJ	.	.	.	.	.	.	.	.	.	.	.	.	.	.	.	.	.	.	.
8A\	.	.	.	8c#/L	.	8ee\L	.	8A\	-cis	.	8c#\	-cis	.	8e\	cis	.	8a\	-cis	.	.	.	.	.	.	.
8A\	.	.	.	8e/	.	8a\	.	8r	.	.	8r	.	.	8r	.	.	8r	.	.	.	.	.	.	.	.
8A\	.	.	.	8a/	.	8cc#\	.	4r	.	.	4r	.	.	4r	.	.	4r	.	.	.	.	4cc#\	.	4ee\	.
8A\J	.	.	.	8cc#/J	.	8ee\J	.	.	.	.	.	.	.	.	.	.	.	.	.	.	.	.	.	.	.
*Xtremolo	*	*	*	*	*	*	*	*	*	*	*	*	*	*	*	*	*	*	*	*	*	*	*	*	*
=35	=35	=35	=35	=35	=35	=35	=35	=35	=35	=35	=35	=35	=35	=35	=35	=35	=35	=35	=35	=35	=35	=35	=35	=35	=35
!	!	!	!	!LO:LB:g=original	!	!LO:LB:g=original	!	!	!	!	!	!	!	!	!	!	!	!	!	!	!LO:LB:g=original	!	!	!	!
*	*	*	*	*	*	*16\right	*	*	*	*	*	*	*	*	*	*	*8\left	*	*	*	*	*	*	*	*
8D\L	.	4f# 4d\	.	16dd\LL	.	16ff#\LL	.	8D\	Ma-	.	8d\	Ma-	.	8a\	Ma-	.	8ff#\	Ma-	.	4d\	4f#\	4dd\	.	4ff#\	.
.	.	.	.	16f#\	.	16a\	.	.	.	.	.	.	.	.	.	.	.	.	.	.	.	.	.	.	.
8D\J	.	.	.	16a\	.	16dd\	.	8D\	-la	.	8f#\	-la	.	8a\	-la	.	8dd\	-la	.	.	.	.	.	.	.
.	.	.	.	16dd\JJ	.	16ff#\JJ	.	.	.	.	.	.	.	.	.	.	.	.	.	.	.	.	.	.	.
*tremolo	*	*	*	*	*	*	*	*	*	*	*	*	*	*	*	*	*	*	*	*	*	*	*	*	*
8E\L	.	4e 4c#\	.	8cc#\L	.	8ee\L	.	4E\	no-	.	4e\	no-	.	4a\	no-	.	4cc#\	no-	.	4A\	4e\	4a\	.	4cc#\	.
8E\	.	.	.	8a\	.	8cc#\	.	.	.	.	.	.	.	.	.	.	.	.	.	.	.	.	.	.	.
8E\	.	4d 4B\	.	8g#\	.	8b\	.	4E\	-stra	.	4B\	-stra	.	4g#\	-stra	.	4dd\	-stra	.	4e\	4e\	4g#\	.	4dd\	.
8E\J	.	.	.	8b\J	.	8dd\J	.	.	.	.	.	.	.	.	.	.	.	.	.	.	.	.	.	.	.
*Xtremolo	*	*	*	*	*	*	*	*	*	*	*	*	*	*	*	*	*	*	*	*	*	*	*	*	*
=36	=36	=36	=36	=36	=36	=36	=36	=36	=36	=36	=36	=36	=36	=36	=36	=36	=36	=36	=36	=36	=36	=36	=36	=36	=36
!	!	!	!	!	!	!	!	!	!	!	!LO:LB:g=original	!	!	!	!	!	!	!	!	!	!	!	!	!	!
8F#\L	.	4.c# 4.A/	.	4a/	.	[4cc#\	.	4F#\	pel-	.	4A\	pel-	.	4a\	pel-	.	4cc#\	pel-	.	4.A/	4.f#\	4.a\	.	4.cc#\	.
8F#\	.	.	.	.	.	.	.	.	.	.	.	.	.	.	.	.	.	.	.	.	.	.	.	.	.
8F#\	.	.	.	8a/	.	8cc#\]	.	8F#\	-le	.	8A\	-le	.	8a\	-le,	.	8cc#\	-le	.	.	.	.	.	.	.
8C#\	.	8c#/L	.	8aL 8e/	.	16a\LL	.	8r	.	.	8r	.	.	8r	.	.	8r	.	.	8A/L	8e\L	8a\L	.	8ee\L	.
.	.	.	.	.	.	16b\JJ	.	.	.	.	.	.	.	.	.	.	.	.	.	.	.	.	.	.	.
!	!	!	!	!	!	!	!LO:DY:a	!	!	!	!	!	!	!	!	!	!	!	!	!	!	!	!	!	!
*	*	*	*	*	*	*	*	*	*	*	*	*	*	*	*	*	*8\right	*	*	*	*	*	*	*	*
8C#\	.	8c#/	.	8a 8e/	.	16cc#\LL	<	8C#\	Bo-	.	8A\	Bo-	.	8a\	bo-	.	8ee\	bo-	.	8A/	8e\	8a\	.	8ee\	.
.	.	.	.	.	.	16dd\	.	.	.	.	.	.	.	.	.	.	.	.	.	.	.	.	.	.	.
8C#\J	.	8c#/J	.	8e/J	.	16ff#\	.	8C#\	-na	.	8A\	-na	.	8a\	-na	.	8ee\	-na	.	8A/J	8e\J	8a\J	.	8ee\J	.
.	.	.	.	.	.	16ee\JJ	[	.	.	.	.	.	.	.	.	.	.	.	.	.	.	.	.	.	.
=37	=37	=37	=37	=37	=37	=37	=37	=37	=37	=37	=37	=37	=37	=37	=37	=37	=37	=37	=37	=37	=37	=37	=37	=37	=37
!LO:LB:g=original	!	!LO:LB:g=original	!	!	!	!	!	!	!	!	!	!	!	!LO:LB:g=original	!	!	!	!	!	!	!	!	!	!	!
*	*	*	*	*	*	*	*	*	*	*	*	*	*	*	*	*	*8\left	*	*	*	*	*	*	*	*
8D\L	.	8d\L	.	16aLL 16d/	.	16ff#\LL	.	8D\	cun-	.	8d\	cun-	.	8a\	cun-	.	8ff#\	cun-	.	4d\	4f#\	4a\	.	4ff#\	.
.	.	.	.	(16f#/	.	(16a\	.	.	.	.	.	.	.	.	.	.	.	.	.	.	.	.	.	.	.
8D\J	.	8d\J	.	16a/	.	16dd\	.	8D\	-cta	.	8f#\	-cta	.	8a\	-cta	.	8dd\	-cta	.	.	.	.	.	.	.
.	.	.	.	16dd/JJ)	.	16ff#\JJ	.	.	.	.	.	.	.	.	.	.	.	.	.	.	.	.	.	.	.
*tremolo	*	*tremolo	*	*	*	*	*	*	*ij	*	*	*ij	*	*	*	*	*	*ij	*	*	*	*	*	*	*
8E\L	.	8e\L	.	16cc#\LL	.	16ee\LL	.	8E\	bo-	.	8e\	bo-	.	8a\	bo-	.	8cc#\	bo-	.	4e\	4e\	4a\	.	4cc#\	.
.	.	.	.	16a\	.	16cc#\	.	.	.	.	.	.	.	.	.	.	.	.	.	.	.	.	.	.	.
8E\	.	8e\	.	16cc#\	.	16ee\	.	8E\	-na	.	8e\	-na	.	8a\	-na	.	8cc#\	-na	.	.	.	.	.	.	.
*	*	*	*	*	*	*16\left	*	*	*	*	*	*	*	*	*	*	*	*	*	*	*	*	*	*	*
.	.	.	.	16ee\JJ	.	16aa\JJ	.	.	.	.	.	.	.	.	.	.	.	.	.	.	.	.	.	.	.
*	*	*	*	*	*	*16\right	*	*	*	*	*	*	*	*	*	*	*	*	*	*	*	*	*	*	*
8E\	.	8e\	.	16b\LL	.	16dd\LL)	.	8E\	cun-	.	8B\	cun-	.	8g#\	cun-	.	8dd\	cun-	.	4e\	4e\	4g#\	.	4b\	.
.	.	.	.	16g#\	.	16b\	.	.	.	.	.	.	.	.	.	.	.	.	.	.	.	.	.	.	.
8E\J	.	8e\J	.	16b\	.	16dd\	.	8E\	-cta	.	8B\	-cta	.	8g#\	-cta	.	8dd\	-cta	.	.	.	.	.	.	.
.	.	.	.	16dd\JJ	.	16bb\JJ	.	.	.	.	.	.	.	.	.	.	.	.	.	.	.	.	.	.	.
*	*	*	*	*	*	*	*	*	*Xij	*	*	*Xij	*	*	*	*	*	*Xij	*	*	*	*	*	*	*
=38	=38	=38	=38	=38	=38	=38	=38	=38	=38	=38	=38	=38	=38	=38	=38	=38	=38	=38	=38	=38	=38	=38	=38	=38	=38
!	!	!	!	!	!	!	!	!LO:LB:g=original	!	!	!	!	!	!	!	!	!LO:LB:g=original	!	!	!LO:LB:g=original	!	!	!	!	!
8AA/L	.	8A/L	.	16a/LL	.	(16cc#\LL	.	2.A\	pos-	.	2e\	pos-	.	2a\	pos-	.	(>2cc#\	pos-	.	2.A/	2.A/	2a\	.	2cc#\	.
.	.	.	.	16e/	.	16a\	.	.	.	.	.	.	.	.	.	.	.	.	.	.	.	.	.	.	.
8AA/	.	8A/	.	16a/	.	16cc#\	.	.	.	.	.	.	.	.	.	.	.	.	.	.	.	.	.	.	.
*	*	*	*	*	*	*16\left	*	*	*	*	*	*	*	*	*	*	*	*	*	*	*	*	*	*	*
.	.	.	.	16cc#/JJ	.	16aa\JJ	.	.	.	.	.	.	.	.	.	.	.	.	.	.	.	.	.	.	.
*	*	*	*	*rep	*	*16\right	*	*	*	*	*	*	*	*	*	*	*	*	*	*	*	*	*	*	*
8AA/	.	8A/	.	16a/LL	.	16cc#\LL	.	.	.	.	.	.	.	.	.	.	.	.	.	.	.	.	.	.	.
.	.	.	.	16e/	.	16a\	.	.	.	.	.	.	.	.	.	.	.	.	.	.	.	.	.	.	.
8AA/	.	8A/	.	16a/	.	16cc#\	.	.	.	.	.	.	.	.	.	.	.	.	.	.	.	.	.	.	.
*	*	*	*	*	*	*16\left	*	*	*	*	*	*	*	*	*	*	*	*	*	*	*	*	*	*	*
.	.	.	.	16cc#/JJ	.	16aa\JJ	.	.	.	.	.	.	.	.	.	.	.	.	.	.	.	.	.	.	.
*	*	*	*	*Xrep	*	*16\right	*	*	*	*	*	*	*	*	*	*	*8\right	*	*	*	*	*	*	*	*
8AA/	.	8A/	.	16dd\LL	.	16b\LL	.	.	.	.	(8d\L	.	.	(8g#\L	.	.	8b\L	.	.	.	.	(8g#\L	.	(8b\L	.
.	.	.	.	16b\	.	16gg#\	.	.	.	.	.	.	.	.	.	.	.	.	.	.	.	.	.	.	.
8AA/J	.	8A/J	.	16a\	.	16cc#\	.	.	.	.	8c#\J)	.	.	8a\J)	.	.	8a\J)	.	.	.	.	8a\J)	.	8a\J)	.
*	*	*	*	*	*	*16\left	*	*	*	*	*	*	*	*	*	*	*	*	*	*	*	*	*	*	*
.	.	.	.	16cc#\JJ	.	16aa\JJ)	.	.	.	.	.	.	.	.	.	.	.	.	.	.	.	.	.	.	.
*	*	*	*	*	*	*16\right	*	*	*	*	*	*	*	*	*	*	*	*	*	*	*	*	*	*	*
=39	=39	=39	=39	=39	=39	=39	=39	=39	=39	=39	=39	=39	=39	=39	=39	=39	=39	=39	=39	=39	=39	=39	=39	=39	=39
!	!	!	!	!LO:LB:g=original	!	!LO:LB:g=original	!	!	!	!	!	!	!	!	!	!	!	!	!	!	!	!	!	!LO:LB:g=original	!
8AA/L	.	8A/L	.	16e/LL	.	16a/LL	.	2A\	-ce	.	2c#\	-ce	.	2a\	-ce	.	2a\	-ce	.	2.A/	2.A/	2.a\	.	2.a\	.
.	.	.	.	16c#/	.	16e/	.	.	.	.	.	.	.	.	.	.	.	.	.	.	.	.	.	.	.
8AA/	.	8A/	.	16e/	.	(16a/	.	.	.	.	.	.	.	.	.	.	.	.	.	.	.	.	.	.	.
.	.	.	.	16a/JJ	.	16cc#/JJ	.	.	.	.	.	.	.	.	.	.	.	.	.	.	.	.	.	.	.
8AA/	.	8A/	.	16c#/LL	.	16e/LL	.	.	.	.	.	.	.	.	.	.	.	.	.	.	.	.	.	.	.
.	.	.	.	16A/	.	16c#/	.	.	.	.	.	.	.	.	.	.	.	.	.	.	.	.	.	.	.
8AA/	.	8A/	.	16c#/	.	16e/	.	.	.	.	.	.	.	.	.	.	.	.	.	.	.	.	.	.	.
.	.	.	.	16e/JJ	.	16a/JJ	.	.	.	.	.	.	.	.	.	.	.	.	.	.	.	.	.	.	.
8AA/	.	8A/	.	[4A/	.	16c#/LL	.	4r	.	.	4r	.	.	4r	.	.	4r	.	.	.	.	.	.	.	.
.	.	.	.	.	.	16A/)	.	.	.	.	.	.	.	.	.	.	.	.	.	.	.	.	.	.	.
8AA/J	.	8A/J	.	.	.	16c#/	.	.	.	.	.	.	.	.	.	.	.	.	.	.	.	.	.	.	.
.	.	.	.	.	.	16e/JJ	.	.	.	.	.	.	.	.	.	.	.	.	.	.	.	.	.	.	.
*Xtremolo	*	*Xtremolo	*	*	*	*	*	*	*	*	*	*	*	*	*	*	*	*	*	*	*	*	*	*	*
=40	=40	=40	=40	=40	=40	=40	=40	=40	=40	=40	=40	=40	=40	=40	=40	=40	=40	=40	=40	=40	=40	=40	=40	=40	=40
!	!	!	!	!	!	!	!	!	!	!	!LO:LB:g=original	!	!	!	!	!	!	!	!	!	!	!	!	!	!
!	!	!	!	!	!	!	!	!LO:TX:a:t=4.	!	!	!LO:TX:a:t=4.	!	!	!LO:TX:a:t=3.	!	!	!LO:TX:a:t=3.	!	!	!	!	!	!	!	!
!	!	!	!	!	!	!	!	!LO:N:vis=00	!	!	!LO:N:vis=00	!	!	!LO:N:vis=0	!	!	!LO:N:vis=0	!	!	!	!	!	!	!	!
16C#/LL	.	16c#/LL	.	2A/]	.	2A/	.	0.r	.	.	0.r	.	.	1.r	.	.	1.r	.	.	2A/	2A/	2a\	.	2a\	.
16AA/	.	16A/	.	.	.	.	.	.	.	.	.	.	.	.	.	.	.	.	.	.	.	.	.	.	.
16C#/	.	16c#/	.	.	.	.	.	.	.	.	.	.	.	.	.	.	.	.	.	.	.	.	.	.	.
16E/JJ	.	16e/JJ	.	.	.	.	.	.	.	.	.	.	.	.	.	.	.	.	.	.	.	.	.	.	.
8A\L	.	8a\L	.	.	.	.	.	.	.	.	.	.	.	.	.	.	.	.	.	.	.	.	.	.	.
8Gn\	.	8gn\	.	.	.	.	.	.	.	.	.	.	.	.	.	.	.	.	.	.	.	.	.	.	.
8F#\	.	8f#\	.	4r	.	4r	.	.	.	.	.	.	.	.	.	.	.	.	.	4r	4r	4r	.	4r	.
8E\J	.	8e\J	.	.	.	.	.	.	.	.	.	.	.	.	.	.	.	.	.	.	.	.	.	.	.
=41	=41	=41	=41	=41	=41	=41	=41	=41	=41	=41	=41	=41	=41	=41	=41	=41	=41	=41	=41	=41	=41	=41	=41	=41	=41
!	!	!	!	!LO:LB:g=original	!	!	!	!	!	!	!	!	!	!	!	!	!	!	!	!	!	!LO:LB:g=original	!	!	!
!	!	!	!	!LO:TX:a:t=2.	!	!LO:TX:a:t=2.	!	!	!	!	!	!	!	!	!	!	!	!	!	!	!	!	!	!	!
!	!	!	!	!LO:N:vis=0	!	!LO:N:vis=0	!	!	!	!	!	!	!	!	!	!	!	!	!	!	!	!	!	!	!
4D\	.	4d\	.	1.r	.	1.r	.	.	.	.	.	.	.	.	.	.	.	.	.	2.d\	2.f#\	2.d/	.	2.d/	.
4r	.	4r	.	.	.	.	.	.	.	.	.	.	.	.	.	.	.	.	.	.	.	.	.	.	.
4r	.	4r	.	.	.	.	.	.	.	.	.	.	.	.	.	.	.	.	.	.	.	.	.	.	.
=42	=42	=42	=42	=42	=42	=42	=42	=42	=42	=42	=42	=42	=42	=42	=42	=42	=42	=42	=42	=42	=42	=42	=42	=42	=42
!LO:TX:a:t=1	!	!	!	!	!	!	!	!	!	!	!	!	!	!	!	!	!	!	!	!	!	!	!	!	!
2.r	.	2.r	.	.	.	.	.	.	.	.	.	.	.	2.r	.	.	2.r	.	.	2.A/	2.e\	2.e/	.	2.e/	.
=43	=43	=43	=43	=43	=43	=43	=43	=43	=43	=43	=43	=43	=43	=43	=43	=43	=43	=43	=43	=43	=43	=43	=43	=43	=43
!	!	!	!	!	!	!	!	!	!	!	!	!	!	!	!	!	!	!	!	!	!LO:LB:g=original	!	!	!	!
*	*	*	*	*^	*	*	*	*	*	*	*	*	*	*	*	*	*	*	*	*	*	*	*	*	*
!	!	!	!	!	!	!	!	!	!	!	!	!	!	!	!	!	!LO:DY:rj:t=p:	!	!	!LO:DY:b:rj:t=p:	!	!	!	!	!	!
[2.D\	.	[2.D/	.	16f#/LL	[2.A\	.	(16a\LL	.	.	.	.	.	.	.	4f#\	Mon-	p	4dd\	Mon-	p	4F#/	4d\	4d/	.	4d/	.
.	.	.	.	16d/	.	.	16f#\	.	.	.	.	.	.	.	.	.	.	.	.	.	.	.	.	.	.	.
.	.	.	.	16f#/	.	.	16a\	.	.	.	.	.	.	.	.	.	.	.	.	.	.	.	.	.	.	.
.	.	.	.	16a/JJ	.	.	16dd\JJ	.	.	.	.	.	.	.	.	.	.	.	.	.	.	.	.	.	.	.
*	*	*	*	*rep	*	*	*	*	*	*	*	*	*	*	*	*	*	*	*	*	*	*	*	*	*	*
.	.	.	.	16f#/LL	.	.	16a\LL	.	.	.	.	.	.	.	8f#\	-stra	.	8dd\	-stra-	.	4r	4r	4r	.	4r	.
.	.	.	.	16d/	.	.	16f#\	.	.	.	.	.	.	.	.	.	.	.	.	.	.	.	.	.	.	.
.	.	.	.	16f#/	.	.	16a\	.	.	.	.	.	.	.	8f#\	te	.	8dd\	-te	.	.	.	.	.	.	.
.	.	.	.	16a/JJ	.	.	16dd\JJ)	.	.	.	.	.	.	.	.	.	.	.	.	.	.	.	.	.	.	.
*	*	*	*	*Xrep	*	*	*	*	*	*	*	*	*	*	*	*	*	*	*	*	*	*	*	*	*	*
.	.	.	.	16gn/LL	.	.	16cc#\LL	.	.	.	.	.	.	.	8a\	eſ-	.	8.ee\	eſ-	.	4r	4r	4r	.	4r	.
.	.	.	.	16e/	.	.	16a\	.	.	.	.	.	.	.	.	.	.	.	.	.	.	.	.	.	.	.
.	.	.	.	16g/	.	.	16cc#\	.	.	.	.	.	.	.	8a\	.	.	.	.	.	.	.	.	.	.	.
.	.	.	.	16a/JJ	.	.	16ee\JJ	.	.	.	.	.	.	.	.	-se	.	16ee\	-se	.	.	.	.	.	.	.
=44	=44	=44	=44	=44	=44	=44	=44	=44	=44	=44	=44	=44	=44	=44	=44	=44	=44	=44	=44	=44	=44	=44	=44	=44	=44	=44
!	!	!	!	!	!	!	!	!	!	!	!	!	!	!	!LO:LB:g=original	!	!	!	!	!	!LO:TX:a:t=1.	!LO:TX:a:t=1.	!LO:TX:a:t=1	!	!LO:TX:a:t=1	!
*	*	*	*	*	*	*	*	*	*	*	*	*	*	*	*	*	*	*8\left	*	*	*	*	*	*	*	*
2.D\]	.	2.D/]	.	16d/LL	2.A\_	.	(16ff#\LL	.	4F#\	Mon-	.	4d\	Mon-	.	(8a\L	Ma-	.	8ff#\L	ma-	.	2.r	2.r	2.r	.	2.r	.
.	.	.	.	16f#/	.	.	16a\	.	.	.	.	.	.	.	.	.	.	.	.	.	.	.	.	.	.	.
*	*	*	*	*	*	*	*	*	*	*	*	*	*	*	*	*	*	*8\right	*	*	*	*	*	*	*	*
.	.	.	.	16a/	.	.	16dd\	.	.	.	.	.	.	.	8f#\J	.	.	8dd\J	.	.	.	.	.	.	.	.
.	.	.	.	16f#/JJ	.	.	16ff#\JJ	.	.	.	.	.	.	.	.	.	.	.	.	.	.	.	.	.	.	.
*	*	*	*	*rep	*	*	*rep	*	*	*	*	*	*	*	*	*	*	*	*	*	*	*	*	*	*	*
.	.	.	.	16d/LL	.	.	16ff#\LL	.	8F#\	-stra	.	8d\	-stra	.	4f#\)	.	.	4.a\	-trem	.	.	.	.	.	.	.
.	.	.	.	16f#/	.	.	16a\	.	.	.	.	.	.	.	.	.	.	.	.	.	.	.	.	.	.	.
.	.	.	.	16a/	.	.	16dd\	.	8F#\	te	.	8d\	te	.	.	.	.	.	.	.	.	.	.	.	.	.
.	.	.	.	16f#/JJ	.	.	16ff#\JJ	.	.	.	.	.	.	.	.	.	.	.	.	.	.	.	.	.	.	.
*	*	*	*	*Xrep	*	*	*Xrep	*	*	*	*	*	*	*	*	*	*	*	*	*	*	*	*	*	*	*
.	.	.	.	16gn/LL	.	.	16ee\LL)	.	8A\	eſ-	.	8e\	eſ-	.	4e\	-trem	.	.	.	.	.	.	.	.	.	.
.	.	.	.	16e/	.	.	16a\	.	.	.	.	.	.	.	.	.	.	.	.	.	.	.	.	.	.	.
*	*	*	*	*	*	*	*	*	*	*	*	*	*	*	*	*	*	*16\right	*	*	*	*	*	*	*	*
.	.	.	.	16a/	.	.	16cc#\	.	8A\	-se	.	8e\	-se	.	.	.	.	(16b\LL	.	.	.	.	.	.	.	.
.	.	.	.	16g/JJ	.	.	16ee\JJ	.	.	.	.	.	.	.	.	.	.	16cc#\JJ)	.	.	.	.	.	.	.	.
=45	=45	=45	=45	=45	=45	=45	=45	=45	=45	=45	=45	=45	=45	=45	=45	=45	=45	=45	=45	=45	=45	=45	=45	=45	=45	=45
!LO:LB:g=original	!	!LO:LB:g=original	!	!LO:LB:g=original	!	!	!LO:LB:g=original	!	!	!	!	!	!	!	!	!	!	!LO:LB:g=original	!	!	!	!	!	!	!	!
[2.D\	.	[2.D/	.	16f#/LL	2.A\_	.	(16a/LL	.	(8A\L	Ma-	.	(8f#\L	Ma-	.	4.f#\	su-	.	4.dd\	su-	.	2.D/	2.D/	2f#\	.	2dd\	.
.	.	.	.	16d/	.	.	16f#/	.	.	.	.	.	.	.	.	.	.	.	.	.	.	.	.	.	.	.
.	.	.	.	16f#/	.	.	16a/	.	8F#\J	.	.	8d\J	.	.	.	.	.	.	.	.	.	.	.	.	.	.
.	.	.	.	16a/JJ	.	.	16dd/JJ	.	.	.	.	.	.	.	.	.	.	.	.	.	.	.	.	.	.	.
*	*	*	*	*rep	*	*	*rep	*	*	*	*	*	*	*	*	*	*	*	*	*	*	*	*	*	*	*
.	.	.	.	16f#/LL	.	.	16a/LL	.	4F#\)	-trem,	.	4.A\)	-trem	.	.	.	.	.	.	.	.	.	.	.	.	.
.	.	.	.	16d/	.	.	16f#/	.	.	.	.	.	.	.	.	.	.	.	.	.	.	.	.	.	.	.
.	.	.	.	16f#/	.	.	16a/	.	.	.	.	.	.	.	8f#\	-mat	.	8dd\	-mat	.	.	.	.	.	.	.
.	.	.	.	16a/JJ	.	.	16dd/JJ	.	.	.	.	.	.	.	.	.	.	.	.	.	.	.	.	.	.	.
*	*	*	*	*Xrep	*	*	*Xrep	*	*	*	*	*	*	*	*	*	*	*	*	*	*	*	*	*	*	*
.	.	.	.	16gn/LL	.	.	16cc#/LL)	.	4E\	.	.	.	.	.	8a\	per	.	8ee\	per-	.	.	.	4g#\	.	4cc#\	.
.	.	.	.	16e/	.	.	16a/	.	.	.	.	.	.	.	.	.	.	.	.	.	.	.	.	.	.	.
*	*	*	*	*	*	*	*	*	*	*	*	*16\right	*	*	*	*	*	*	*	*	*	*	*	*	*	*
.	.	.	.	16g/	.	.	16cc#/	.	.	.	.	16B\LL	.	.	8a\	te	.	8ee\	-te	.	.	.	.	.	.	.
.	.	.	.	16a/JJ	.	.	16ee/JJ	.	.	.	.	16c#\JJ	.	.	.	.	.	.	.	.	.	.	.	.	.	.
=46	=46	=46	=46	=46	=46	=46	=46	=46	=46	=46	=46	=46	=46	=46	=46	=46	=46	=46	=46	=46	=46	=46	=46	=46	=46	=46
2.D\_	.	2.D/_	.	16d/LL	2.A\_	.	16ff#\LL	.	4.D\	su-	.	4.d\	su-	.	8a\L	pre-	.	8ff#\L	pre-	.	2.D/	2.D/	2f#\	.	2dd\	.
.	.	.	.	16f#/	.	.	(16a\	.	.	.	.	.	.	.	.	.	.	.	.	.	.	.	.	.	.	.
.	.	.	.	16a/	.	.	16dd\	.	.	.	.	.	.	.	8e\J	.	.	(8dd\J	.	.	.	.	.	.	.	.
.	.	.	.	16f#/JJ	.	.	16ff#\JJ	.	.	.	.	.	.	.	.	.	.	.	.	.	.	.	.	.	.	.
*	*	*	*	*rep	*	*	*rep	*	*	*	*	*	*	*	*	*	*	*	*	*	*	*	*	*	*	*
.	.	.	.	16d/LL	.	.	16ff#\LL	.	.	.	.	.	.	.	4f#\	.	.	4.a\)	.	.	.	.	.	.	.	.
.	.	.	.	16f#/	.	.	16a\	.	.	.	.	.	.	.	.	.	.	.	.	.	.	.	.	.	.	.
.	.	.	.	16a/	.	.	16dd\	.	8F#\	-mat	.	8c#\	-mat	.	.	.	.	.	.	.	.	.	.	.	.	.
.	.	.	.	16f#/JJ	.	.	16ff#\JJ	.	.	.	.	.	.	.	.	.	.	.	.	.	.	.	.	.	.	.
*	*	*	*	*Xrep	*	*	*Xrep	*	*	*	*	*	*	*	*	*	*	*	*	*	*	*	*	*	*	*
.	.	.	.	16gn/LL	.	.	16ee\LL)	.	8A\	per	.	8e\	per	.	4e\	-ces	.	.	.	.	.	.	4a\	.	4ee\	.
.	.	.	.	16e/	.	.	16a\	.	.	.	.	.	.	.	.	.	.	.	.	.	.	.	.	.	.	.
.	.	.	.	16a/	.	.	16cc#\	.	8A\	te	.	8e\	te	.	.	.	.	16b\LL	-ces	.	.	.	.	.	.	.
.	.	.	.	16g/JJ	.	.	16ee\JJ	.	.	.	.	.	.	.	.	.	.	16cc#\JJ	.	.	.	.	.	.	.	.
=47	=47	=47	=47	=47	=47	=47	=47	=47	=47	=47	=47	=47	=47	=47	=47	=47	=47	=47	=47	=47	=47	=47	=47	=47	=47	=47
!	!	!	!	!	!	!	!	!	!LO:LB:g=original	!	!	!LO:LB:g=original	!	!	!	!	!	!	!	!	!LO:LB:g=original	!	!	!	!LO:LB:g=original	!
!	!	!	!	!	!	!	!	!	!	!	!	!LO:SIC:l:s=pre-:v	!	!	!	!	!	!	!	!	!	!	!	!	!	!
2.D\_	.	2.D/_	.	16f#/LL	2.A\_	.	16a/LL	.	(8A\L	pre-	.	8f#\L	prae-	.	4.d\	qui	.	4.dd\	qui	.	2.D/	2.D/	2dd\	.	2ff#\	.
.	.	.	.	16d/	.	.	16f#/	.	.	.	.	.	.	.	.	.	.	.	.	.	.	.	.	.	.	.
.	.	.	.	16f#/	.	.	(16a/	.	8F#\J)	.	.	8d\J	.	.	.	.	.	.	.	.	.	.	.	.	.	.
.	.	.	.	16a/JJ	.	.	16dd/JJ	.	.	.	.	.	.	.	.	.	.	.	.	.	.	.	.	.	.	.
*	*	*	*	*rep	*	*	*rep	*	*	*	*	*	*	*	*	*	*	*	*	*	*	*	*	*	*	*
.	.	.	.	16f#/LL	.	.	16a/LL	.	4F#\	.	.	(4.A\	-ces	.	.	.	.	.	.	.	.	.	.	.	.	.
.	.	.	.	16d/	.	.	16f#/	.	.	.	.	.	.	.	.	.	.	.	.	.	.	.	.	.	.	.
.	.	.	.	16f#/	.	.	16a/	.	.	.	.	.	.	.	8f#\	pro	.	8a\	pro-	.	.	.	.	.	.	.
.	.	.	.	16a/JJ	.	.	16dd/JJ	.	.	.	.	.	.	.	.	.	.	.	.	.	.	.	.	.	.	.
*	*	*	*	*Xrep	*	*	*Xrep	*	*	*	*	*	*	*	*	*	*	*	*	*	*	*	*	*	*	*
.	.	.	.	16gn/LL	.	.	16cc#/LL	.	4E\	-ces	.	.	.	.	8a\	no-	.	8a\	-no-	.	.	.	4ee\	.	4gg#\	.
.	.	.	.	16e/	.	.	16a/)	.	.	.	.	.	.	.	.	.	.	.	.	.	.	.	.	.	.	.
.	.	.	.	16g/	.	.	16cc#/	.	.	.	.	16B\LL	.	.	8a\	-bis	.	8a\	-bis	.	.	.	.	.	.	.
.	.	.	.	16a/JJ	.	.	16ee/JJ	.	.	.	.	16c#\JJ)	.	.	.	.	.	.	.	.	.	.	.	.	.	.
=48	=48	=48	=48	=48	=48	=48	=48	=48	=48	=48	=48	=48	=48	=48	=48	=48	=48	=48	=48	=48	=48	=48	=48	=48	=48	=48
!	!	!	!	!	!	!	!	!	!	!	!	!	!	!	!LO:LB:g=original	!	!	!	!	!	!	!	!	!	!	!
*	*	*	*	*	*	*	*	*	*	*	*	*	*	*	*	*	*	*4\left	*	*	*	*	*	*	*4\left	*
2.D\_	.	2.D/]	.	16d/LL	4A/]	.	16ff#\LL	.	4.D\	qui	.	4.d\	qui	.	4a\	na-	.	(4ff#\	na-	.	4D/	4D/	4dd\	.	4ff#\	.
.	.	.	.	16f#/	.	.	16a\	.	.	.	.	.	.	.	.	.	.	.	.	.	.	.	.	.	.	.
.	.	.	.	16a/	.	.	(16dd\	.	.	.	.	.	.	.	.	.	.	.	.	.	.	.	.	.	.	.
.	.	.	.	16f#/JJ	.	.	16ff#\JJ	.	.	.	.	.	.	.	.	.	.	.	.	.	.	.	.	.	.	.
*	*	*	*	*	*	*	*	*	*	*	*	*	*	*	*	*	*	*4\right	*	*	*	*	*	*	*	*
.	.	.	.	16e/LL	2A\	.	16gg#\LL	.	.	.	.	.	.	.	2cc#\	-tus	.	4ggn\)	-tus	.	2D^>/	2A^>/	2cc#\	.	2ee\	.
.	.	.	.	16gn/	.	.	16cc#\	.	.	.	.	.	.	.	.	.	.	.	.	.	.	.	.	.	.	.
.	.	.	.	16a/	.	.	16ee\	.	8D\	pro	.	8A\	pro	.	.	.	.	.	.	.	.	.	.	.	.	.
.	.	.	.	16e/JJ	.	.	16gg#\JJ	.	.	.	.	.	.	.	.	.	.	.	.	.	.	.	.	.	.	.
.	.	.	.	16c#/LL	.	.	16ee\LL	.	8D\	no-	.	8A\	no-	.	.	.	.	4ee\	.	.	.	.	.	.	.	.
.	.	.	.	16e/	.	.	16cc#\	.	.	.	.	.	.	.	.	.	.	.	.	.	.	.	.	.	.	.
.	.	.	.	16g/	.	.	16a\)	.	8D\	-bis	.	8A\	-bis	.	.	.	.	.	.	.	.	.	.	.	.	.
.	.	.	.	16e/JJ	.	.	16cc#\JJ	.	.	.	.	.	.	.	.	.	.	.	.	.	.	.	.	.	.	.
*	*	*	*	*v	*v	*	*	*	*	*	*	*	*	*	*	*	*	*	*	*	*	*	*	*	*	*
=49	=49	=49	=49	=49	=49	=49	=49	=49	=49	=49	=49	=49	=49	=49	=49	=49	=49	=49	=49	=49	=49	=49	=49	=49	=49
!	!	!	!	!LO:LB:g=original	!	!LO:LB:g=original	!	!	!	!	!	!	!	!	!	!	!	!	!	!	!	!	!	!	!
*	*	*	*	*	*	*	*	*	*	*	*	*	*	*4\left	*	*	*	*	*	*	*	*	*	*	*
2.D\]	.	2.D/	.	16f#/LL	.	16dd\LL	.	2D\	na-	.	(4f#\	na-	.	(4dd\	tu-	.	(4dd\	tu-	.	4D/	4D/	4dd\	.	4ff#\	.
.	.	.	.	16d/	.	16f#\	.	.	.	.	.	.	.	.	.	.	.	.	.	.	.	.	.	.	.
.	.	.	.	16f#/	.	(16a\	.	.	.	.	.	.	.	.	.	.	.	.	.	.	.	.	.	.	.
.	.	.	.	16a/JJ	.	16dd\JJ	.	.	.	.	.	.	.	.	.	.	.	.	.	.	.	.	.	.	.
*	*	*	*	*	*	*	*	*	*	*	*4\left	*	*	*4\right	*	*	*	*	*	*	*	*	*	*	*
.	.	.	.	(16gn/LL	.	16ee\LL	.	.	.	.	4gn\)	.	.	4cc#\)	.	.	4ee\)	.	.	2D^>/	2A^>/	2cc#\	.	2ee\	.
.	.	.	.	16e/	.	16a\	.	.	.	.	.	.	.	.	.	.	.	.	.	.	.	.	.	.	.
.	.	.	.	16a/	.	16cc#\	.	.	.	.	.	.	.	.	.	.	.	.	.	.	.	.	.	.	.
.	.	.	.	16g/JJ	.	16ee\JJ	.	.	.	.	.	.	.	.	.	.	.	.	.	.	.	.	.	.	.
*	*	*	*	*	*	*	*	*	*	*	*4\right	*	*	*	*	*	*	*	*	*	*	*	*	*	*
.	.	.	.	16e/LL)	.	16cc#/LL)	.	4D\	-tus	.	4e\	-tus	.	4g#\	-lit	.	4cc#\	-lit	.	.	.	.	.	.	.
.	.	.	.	16c#/	.	16a/	.	.	.	.	.	.	.	.	.	.	.	.	.	.	.	.	.	.	.
.	.	.	.	16A/	.	16e/	.	.	.	.	.	.	.	.	.	.	.	.	.	.	.	.	.	.	.
.	.	.	.	16c#/JJ	.	16a/JJ	.	.	.	.	.	.	.	.	.	.	.	.	.	.	.	.	.	.	.
=50	=50	=50	=50	=50	=50	=50	=50	=50	=50	=50	=50	=50	=50	=50	=50	=50	=50	=50	=50	=50	=50	=50	=50	=50	=50
!	!	!	!	!	!	!	!	!	!	!	!	!	!	!	!	!	!LO:LB:g=original	!	!	!	!	!LO:LB:g=original	!	!	!
*	*	*	*	*	*	*	*	*	*	*	*	*	*	*	*ij	*	*4\left	*	*	*	*	*	*	*	*
4D\	.	4D/	.	16d/LL	.	16ff#\LL	.	4D\	tu-	.	(4d\	tu-	.	(4f#\	tu-	.	(4ff#\	tu-	.	4D/	4A/	4dd\	.	4ff#\	.
.	.	.	.	(16f#/	.	16a\	.	.	.	.	.	.	.	.	.	.	.	.	.	.	.	.	.	.	.
.	.	.	.	16a/	.	(16dd\	.	.	.	.	.	.	.	.	.	.	.	.	.	.	.	.	.	.	.
.	.	.	.	16dd/JJ	.	16ff#\JJ	.	.	.	.	.	.	.	.	.	.	.	.	.	.	.	.	.	.	.
*	*	*	*	*	*	*	*	*	*	*	*	*	*	*	*	*	*4\right	*	*	*	*	*	*	*4\right	*
2GG#^>/	.	2Gn/	.	16b/LL	.	16ffn\LL	.	2Gn\	-lit	.	4B\)	.	.	4d\)	.	.	4ggn\)	.	.	4r	4r	4b\	.	4gg#\	.
.	.	.	.	16g#/	.	16b\	.	.	.	.	.	.	.	.	.	.	.	.	.	.	.	.	.	.	.
.	.	.	.	16b/	.	16ee\	.	.	.	.	.	.	.	.	.	.	.	.	.	.	.	.	.	.	.
.	.	.	.	16ee/JJ	.	16gg#\JJ	.	.	.	.	.	.	.	.	.	.	.	.	.	.	.	.	.	.	.
*	*	*	*	*	*	*	*	*	*	*	*	*	*	*4\left	*	*	*	*	*	*	*	*	*	*	*
.	.	.	.	16b/LL)	.	16ee\LL	.	.	.	.	4e\	-lit	.	4b\	-lit	.	4ee\	-lit	.	4r	4r	4g#\	.	4ee\	.
*	*	*	*	*	*	*	*	*	*	*	*	*	*	*	*Xij	*	*	*	*	*	*	*	*	*	*
.	.	.	.	16e/	.	16g#\)	.	.	.	.	.	.	.	.	.	.	.	.	.	.	.	.	.	.	.
.	.	.	.	16g#/	.	16b\	.	.	.	.	.	.	.	.	.	.	.	.	.	.	.	.	.	.	.
.	.	.	.	16b/JJ	.	16ee\JJ	.	.	.	.	.	.	.	.	.	.	.	.	.	.	.	.	.	.	.
=51	=51	=51	=51	=51	=51	=51	=51	=51	=51	=51	=51	=51	=51	=51	=51	=51	=51	=51	=51	=51	=51	=51	=51	=51	=51
!	!	!	!	!	!	!	!	!	!	!	!	!	!	!	!	!	!	!	!	!	!LO:LB:g=original	!	!	!	!
*tremolo	*	*tremolo	*	*	*	*	*	*	*	*	*	*	*	*	*	*	*	*	*	*	*	*	*	*	*
8AA/L	.	8A/L	.	16f#/LL	.	16dd\LL	.	2A\	eſ-	.	2f#\	eſ-	.	2a\	eſ-	.	2dd\	eſ-	.	4r	4r	2f#/	.	2dd\	.
.	.	.	.	16d/	.	&(16f#\	.	.	.	.	.	.	.	.	.	.	.	.	.	.	.	.	.	.	.
8AA/	.	8A/	.	(16f#/	.	16a\	.	.	.	.	.	.	.	.	.	.	.	.	.	.	.	.	.	.	.
.	.	.	.	16a/JJ	.	16dd\JJ	.	.	.	.	.	.	.	.	.	.	.	.	.	.	.	.	.	.	.
8AA/	.	8A/	.	16dd/LL	.	16ff#\LL	.	.	.	.	.	.	.	.	.	.	.	.	.	4d\	4f#\	.	.	.	.
.	.	.	.	16a/	.	16dd\	.	.	.	.	.	.	.	.	.	.	.	.	.	.	.	.	.	.	.
8AA/	.	8A/	.	16f#/)	.	16a\	.	.	.	.	.	.	.	.	.	.	.	.	.	.	.	.	.	.	.
.	.	.	.	16d/JJ	.	16f#\JJ	.	.	.	.	.	.	.	.	.	.	.	.	.	.	.	.	.	.	.
*	*	*	*	*	*	*	*	*	*	*	*	*	*	*4\right	*	*	*	*	*	*	*	*	*	*	*
8AA/	.	8A/	.	16c#/LL	.	(16e/LL	.	4A\	-se	.	4e\	-se	.	4a\	-se	.	4cc#\	-se	.	4A\	4e\	4e/	.	4cc#\	.
.	.	.	.	16e/	.	16g#/&)	.	.	.	.	.	.	.	.	.	.	.	.	.	.	.	.	.	.	.
8AA/J	.	8A/J	.	16a/	.	16a/	.	.	.	.	.	.	.	.	.	.	.	.	.	.	.	.	.	.	.
.	.	.	.	16gn/JJ	.	16cc#/JJ)	.	.	.	.	.	.	.	.	.	.	.	.	.	.	.	.	.	.	.
=52	=52	=52	=52	=52	=52	=52	=52	=52	=52	=52	=52	=52	=52	=52	=52	=52	=52	=52	=52	=52	=52	=52	=52	=52	=52
!	!	!	!	!	!	!	!	!	!	!	!LO:LB:g=original	!	!	!	!	!	!	!	!	!	!	!	!	!	!
8AA/L	.	8A/L	.	16f#/LL	.	16dd\LL	.	2A\	tu-	.	2d\	tu-	.	(2.a\	tu-	.	(2ff#\	Tu-	.	4F#/	4d\	2f#/	.	2dd\	.
.	.	.	.	16d/	.	16f#\	.	.	.	.	.	.	.	.	.	.	.	.	.	.	.	.	.	.	.
8AA/	.	8A/	.	16f#/	.	(16a\	.	.	.	.	.	.	.	.	.	.	.	.	.	.	.	.	.	.	.
.	.	.	.	16a/JJ	.	16dd\JJ	.	.	.	.	.	.	.	.	.	.	.	.	.	.	.	.	.	.	.
8AA/	.	8A/	.	16dd/LL	.	16ff#\LL	.	.	.	.	.	.	.	.	.	.	.	.	.	4r	4r	.	.	.	.
.	.	.	.	16a/	.	16dd\	.	.	.	.	.	.	.	.	.	.	.	.	.	.	.	.	.	.	.
8AA/	.	8A/	.	16f#/	.	16a\	.	.	.	.	.	.	.	.	.	.	.	.	.	.	.	.	.	.	.
.	.	.	.	16d/JJ	.	16f#\JJ	.	.	.	.	.	.	.	.	.	.	.	.	.	.	.	.	.	.	.
8AA/	.	8A/	.	16c#/LL	.	16e/LL	.	4A\	-us	.	4c#\	-us	.	.	.	.	4ee\)	.	.	4r	4r	4g#/	.	4cc#\	.
.	.	.	.	16e/	.	16g#/)	.	.	.	.	.	.	.	.	.	.	.	.	.	.	.	.	.	.	.
8AA/J	.	8A/J	.	16a/	.	16a/	.	.	.	.	.	.	.	.	.	.	.	.	.	.	.	.	.	.	.
.	.	.	.	16gn/JJ	.	16dd/JJ	.	.	.	.	.	.	.	.	.	.	.	.	.	.	.	.	.	.	.
*Xtremolo	*	*	*	*	*	*	*	*	*	*	*	*	*	*	*	*	*	*	*	*	*	*	*	*	*
=53	=53	=53	=53	=53	=53	=53	=53	=53	=53	=53	=53	=53	=53	=53	=53	=53	=53	=53	=53	=53	=53	=53	=53	=53	=53
!LO:LB:g=original	!	!	!	!LO:LB:g=original	!	!LO:LB:g=original	!	!LO:LB:g=original	!	!	!	!	!	!	!	!	!	!	!	!	!	!	!	!	!
*	*	*	*	*^	*	*	*	*	*	*	*	*	*	*	*	*	*	*	*	*	*	*	*	*	*
!	!	!	!	!	!	!	!	!	!	!	!	!	!	!	!	!	!	!	!	!	!LO:TX:a:t=1.	!LO:TX:a:t=1.	!	!	!	!
[2.D\	.	[2.D/	.	16f#/LL	[2.A\	.	16a/LL	.	4.F#\	Vir-	.	4.d\	Vir-	.	2a\)	-us	.	2dd\	-us	.	2.r	2.r	4f#/	.	4dd\	.
.	.	.	.	16d/	.	.	(16f#/	.	.	.	.	.	.	.	.	.	.	.	.	.	.	.	.	.	.	.
.	.	.	.	16f#/	.	.	16a/	.	.	.	.	.	.	.	.	.	.	.	.	.	.	.	.	.	.	.
.	.	.	.	16a/JJ	.	.	16dd/JJ	.	.	.	.	.	.	.	.	.	.	.	.	.	.	.	.	.	.	.
*	*	*	*	*rep	*	*	*rep	*	*	*	*	*	*	*	*	*	*	*	*	*	*	*	*	*	*	*
.	.	.	.	16f#/LL	.	.	16a/LL	.	.	.	.	.	.	.	.	.	.	.	.	.	.	.	4r	.	4r	.
.	.	.	.	16d/	.	.	16f#/	.	.	.	.	.	.	.	.	.	.	.	.	.	.	.	.	.	.	.
.	.	.	.	16f#/	.	.	16a/	.	8F#\	-go	.	8d\	-go	.	.	.	.	.	.	.	.	.	.	.	.	.
.	.	.	.	16a/JJ	.	.	16dd/JJ	.	.	.	.	.	.	.	.	.	.	.	.	.	.	.	.	.	.	.
*	*	*	*	*Xrep	*	*	*Xrep	*	*	*	*	*	*	*	*	*	*	*	*	*	*	*	*	*	*	*
.	.	.	.	16gn/LL	.	.	16cc#\LL	.	8A\	sin-	.	8e\	sin-	.	4r	.	.	4r	.	.	.	.	4r	.	4r	.
.	.	.	.	16d/	.	.	16a\	.	.	.	.	.	.	.	.	.	.	.	.	.	.	.	.	.	.	.
.	.	.	.	16g/	.	.	16cc#\	.	8A\	-gu-	.	8e\	-gu-	.	.	.	.	.	.	.	.	.	.	.	.	.
.	.	.	.	16a/JJ	.	.	16ee\JJ)	.	.	.	.	.	.	.	.	.	.	.	.	.	.	.	.	.	.	.
=54	=54	=54	=54	=54	=54	=54	=54	=54	=54	=54	=54	=54	=54	=54	=54	=54	=54	=54	=54	=54	=54	=54	=54	=54	=54	=54
!	!	!	!	!	!	!	!	!	!	!	!	!	!	!	!LO:LB:g=original	!	!	!	!	!	!LO:LB:g=original	!	!	!	!	!
!	!	!	!	!	!	!	!	!	!	!	!	!	!	!	!	!	!	!	!	!	!	!	!LO:TX:a:t=1	!	!LO:TX:a:t=1	!
2.D\_	.	2.D/]	.	16d/LL	2.A\_	.	16ff#\LL	.	(8A\L	-la-	.	(8f#\L	-la-	.	4.f#\	Vir-	.	4.dd\	Vir-	.	2.D/	2.D/	2.r	.	2.r	.
.	.	.	.	16f#/	.	.	16a\	.	.	.	.	.	.	.	.	.	.	.	.	.	.	.	.	.	.	.
.	.	.	.	16a/	.	.	(16dd\	.	8F#\J)	.	.	8d\J)	.	.	.	.	.	.	.	.	.	.	.	.	.	.
.	.	.	.	16f#/JJ	.	.	16ff#\JJ	.	.	.	.	.	.	.	.	.	.	.	.	.	.	.	.	.	.	.
*	*	*	*	*rep	*	*	*rep	*	*	*	*	*	*	*	*	*	*	*	*	*	*	*	*	*	*	*
.	.	.	.	16d/LL	.	.	16ff#\LL	.	4F#\	-ris	.	(4.A\	-ris	.	.	.	.	.	.	.	.	.	.	.	.	.
.	.	.	.	16f#/	.	.	16a\	.	.	.	.	.	.	.	.	.	.	.	.	.	.	.	.	.	.	.
.	.	.	.	16a/	.	.	16dd\	.	.	.	.	.	.	.	8f#\	-go	.	8dd\	-go	.	.	.	.	.	.	.
.	.	.	.	16f#/JJ	.	.	16ff#\JJ	.	.	.	.	.	.	.	.	.	.	.	.	.	.	.	.	.	.	.
*	*	*	*	*Xrep	*	*	*Xrep	*	*	*	*	*	*	*	*	*	*	*	*	*	*	*	*	*	*	*
.	.	.	.	16gn/LL	.	.	16ee\LL	.	4E\	.	.	.	.	.	8a\	Sin-	.	8.ee\	Sin-	.	.	.	.	.	.	.
.	.	.	.	16e/	.	.	16a\	.	.	.	.	.	.	.	.	.	.	.	.	.	.	.	.	.	.	.
.	.	.	.	16a/	.	.	16cc#\	.	.	.	.	16B\LL	.	.	8a\	-gu-	.	.	.	.	.	.	.	.	.	.
.	.	.	.	16g/JJ	.	.	16ee\JJ)	.	.	.	.	16c#\JJ)	.	.	.	.	.	16ee\	-gu-	.	.	.	.	.	.	.
=55	=55	=55	=55	=55	=55	=55	=55	=55	=55	=55	=55	=55	=55	=55	=55	=55	=55	=55	=55	=55	=55	=55	=55	=55	=55	=55
!	!	!LO:LB:g=original	!	!	!	!	!	!	!	!	!	!	!	!	!	!	!	!	!	!	!	!	!	!	!LO:LB:g=original	!
!	!	!	!	!	!	!	!	!	!	!	!	!	!	!	!	!	!	!	!	!	!	!	!LO:TX:a:t=P:problem=górny dźwięk przekreślony	!	!	!
*	*	*	*	*	*	*	*	*	*	*	*	*	*	*	*	*	*	*8\left	*	*	*	*	*	*	*	*
2.D\_	.	[2.D/	.	16f#/LL	2.A\_	.	16a/LL	.	4.D\	in-	.	4.d\	in-	.	8a\L	-la-	.	(8ff#\L	-la-	.	2.D/	2.D/	2dd 2f#\	.	2dd\	.
.	.	.	.	16d/	.	.	16f#/	.	.	.	.	.	.	.	.	.	.	.	.	.	.	.	.	.	.	.
*	*	*	*	*	*	*	*	*	*	*	*	*	*	*	*	*	*	*8\right	*	*	*	*	*	*	*	*
.	.	.	.	16f#/	.	.	16a/	.	.	.	.	.	.	.	8f#\J	.	.	8dd\J)	.	.	.	.	.	.	.	.
.	.	.	.	16a/JJ	.	.	(16dd/JJ	.	.	.	.	.	.	.	.	.	.	.	.	.	.	.	.	.	.	.
*	*	*	*	*rep	*	*	*rep	*	*	*	*	*	*	*	*	*	*	*	*	*	*	*	*	*	*	*
.	.	.	.	16f#/LL	.	.	16a/LL	.	.	.	.	.	.	.	4f#\	.	.	4.a\	-ris	.	.	.	.	.	.	.
.	.	.	.	16d/	.	.	16f#/	.	.	.	.	.	.	.	.	.	.	.	.	.	.	.	.	.	.	.
.	.	.	.	16f#/	.	.	16a/	.	8F#\	-ter	.	8d\	-ter	.	.	.	.	.	.	.	.	.	.	.	.	.
.	.	.	.	16a/JJ	.	.	16dd/JJ	.	.	.	.	.	.	.	.	.	.	.	.	.	.	.	.	.	.	.
*	*	*	*	*Xrep	*	*	*Xrep	*	*	*	*	*	*	*	*	*	*	*	*	*	*	*	*	*	*	*
!	!	!	!	!	!	!	!	!	!	!	!	!	!	!	!	!	!	!	!	!	!	!	!LO:TX:a:t=P:problem=górny dźwięk przekreślony	!	!	!
.	.	.	.	16gn/LL	.	.	16cc#\LL	.	8A\	om-	.	8e\	om-	.	4e\	-ris	.	.	.	.	.	.	4cc# 4g#\	.	4cc#\	.
.	.	.	.	16e/	.	.	16a\	.	.	.	.	.	.	.	.	.	.	.	.	.	.	.	.	.	.	.
!	!	!	!	!	!	!	!	!	!LO:SIC:l:s=-nes:v	!	!	!	!	!	!	!	!	!	!	!	!	!	!	!	!	!
.	.	.	.	16g/	.	.	16cc#\	.	8A\	-nis	.	8e\	-nes	.	.	.	.	(16b\LL	.	.	.	.	.	.	.	.
.	.	.	.	16a/JJ	.	.	16ee\JJ)	.	.	.	.	.	.	.	.	.	.	16cc#\JJ)	.	.	.	.	.	.	.	.
=56	=56	=56	=56	=56	=56	=56	=56	=56	=56	=56	=56	=56	=56	=56	=56	=56	=56	=56	=56	=56	=56	=56	=56	=56	=56	=56
!	!	!	!	!	!	!	!	!	!	!	!	!LO:LB:g=original	!	!	!	!	!	!LO:LB:g=original	!	!	!	!	!	!	!	!
2.D\_	.	2.D/_	.	16d/LL	2.A\_	.	16ff#\LL	.	8A\L	mi-	.	(8f#\L	mi-	.	4.d\	in-	.	4.dd\	in-	.	2.D/	2.D/	2f#\	.	2dd\	.
.	.	.	.	16f#/	.	.	16a\	.	.	.	.	.	.	.	.	.	.	.	.	.	.	.	.	.	.	.
.	.	.	.	16a/	.	.	(16dd\	.	8F#\J	.	.	8d\J	.	.	.	.	.	.	.	.	.	.	.	.	.	.
.	.	.	.	16f#/JJ	.	.	16ff#\JJ	.	.	.	.	.	.	.	.	.	.	.	.	.	.	.	.	.	.	.
*	*	*	*	*rep	*	*	*rep	*	*	*	*	*	*	*	*	*	*	*	*	*	*	*	*	*	*	*
.	.	.	.	16d/LL	.	.	16ff#\LL	.	4F#\	-tis	.	4.A\)	-tis	.	.	.	.	.	.	.	.	.	.	.	.	.
.	.	.	.	16f#/	.	.	16a\	.	.	.	.	.	.	.	.	.	.	.	.	.	.	.	.	.	.	.
.	.	.	.	16a/	.	.	16dd\	.	.	.	.	.	.	.	8f#\	-ter	.	8dd\	-ter	.	.	.	.	.	.	.
.	.	.	.	16f#/JJ	.	.	16ff#\JJ	.	.	.	.	.	.	.	.	.	.	.	.	.	.	.	.	.	.	.
*	*	*	*	*Xrep	*	*	*Xrep	*	*	*	*	*	*	*	*	*	*	*	*	*	*	*	*	*	*	*
.	.	.	.	16gn/LL	.	.	16ee\LL	.	4E\	nos	.	.	.	.	8a\	om-	.	8ee\	om-	.	.	.	4a\	.	4ee\	.
.	.	.	.	16e/	.	.	16a\	.	.	.	.	.	.	.	.	.	.	.	.	.	.	.	.	.	.	.
.	.	.	.	16a/	.	.	16cc#\	.	.	.	.	(16B\LL	.	.	8a\	-nes	.	8ee\	-nes	.	.	.	.	.	.	.
.	.	.	.	16g/JJ	.	.	16ee\JJ)	.	.	.	.	16c#\JJ)	.	.	.	.	.	.	.	.	.	.	.	.	.	.
=57	=57	=57	=57	=57	=57	=57	=57	=57	=57	=57	=57	=57	=57	=57	=57	=57	=57	=57	=57	=57	=57	=57	=57	=57	=57	=57
!	!	!	!	!LO:LB:g=original	!	!	!LO:LB:g=original	!	!	!	!	!	!	!	!	!	!	!	!	!	!	!	!	!	!	!
*	*	*	*	*	*	*	*	*	*	*	*	*	*	*	*	*	*	*8\left	*	*	*	*	*	*	*	*
2.D\_	.	2.D/_	.	16f#/LL	2.A\_	.	(16a/LL	.	(4.D\	cul-	.	4.d\	nos	.	(8a\L	mi-	.	(8ff#\L	mi-	.	4D/	4D/	2dd\	.	2ff#\	.
.	.	.	.	16d/	.	.	16f#/	.	.	.	.	.	.	.	.	.	.	.	.	.	.	.	.	.	.	.
*	*	*	*	*	*	*	*	*	*	*	*	*	*	*	*	*	*	*8\right	*	*	*	*	*	*	*	*
.	.	.	.	16f#/	.	.	16a/	.	.	.	.	.	.	.	8f#\J)	.	.	8dd\J)	.	.	.	.	.	.	.	.
.	.	.	.	16a/JJ	.	.	16dd/JJ	.	.	.	.	.	.	.	.	.	.	.	.	.	.	.	.	.	.	.
*	*	*	*	*rep	*	*	*rep	*	*	*	*	*	*	*	*	*	*	*	*	*	*	*	*	*	*	*
.	.	.	.	16f#/LL	.	.	16a/LL	.	.	.	.	.	.	.	4f#\	-tis	.	4.a\	-tis	.	2D^>/	2A^>/	.	.	.	.
.	.	.	.	16d/	.	.	16f#/	.	.	.	.	.	.	.	.	.	.	.	.	.	.	.	.	.	.	.
.	.	.	.	16f#/	.	.	16a/	.	8F#\	-pis	.	8A\	cul-	.	.	.	.	.	.	.	.	.	.	.	.	.
.	.	.	.	16a/JJ	.	.	16dd/JJ	.	.	.	.	.	.	.	.	.	.	.	.	.	.	.	.	.	.	.
*	*	*	*	*Xrep	*	*	*Xrep	*	*	*	*	*	*	*	*	*	*	*	*	*	*	*	*	*	*	*
.	.	.	.	16gn/LL	.	.	16cc#\LL	.	8A\)	so	.	8A\	-pis	.	4e\	nos	.	.	.	.	.	.	4ee\	.	4gg#\	.
.	.	.	.	16e/	.	.	16a\)	.	.	.	.	.	.	.	.	.	.	.	.	.	.	.	.	.	.	.
.	.	.	.	16g/	.	.	16cc#\	.	8A\	.	.	8A\	so-	.	.	.	.	(16b\LL	.	.	.	.	.	.	.	.
.	.	.	.	16a/JJ	.	.	16ee\JJ	.	.	.	.	.	.	.	.	.	.	16cc#\JJ)	.	.	.	.	.	.	.	.
=58	=58	=58	=58	=58	=58	=58	=58	=58	=58	=58	=58	=58	=58	=58	=58	=58	=58	=58	=58	=58	=58	=58	=58	=58	=58	=58
!	!	!	!	!	!	!	!	!	!LO:LB:g=original	!	!	!	!	!	!LO:LB:g=original	!	!	!	!	!	!	!	!LO:LB:g=original	!	!	!
*	*	*	*	*	*	*	*	*	*	*	*	*	*	*	*	*	*	*	*	*	*	*	*	*	*4\left	*
2.D\_	.	2.D/_	.	16d/LL	2.A\]	.	16ff#\LL	.	4D\	lu-	.	(4f#\	-lu-	.	4.d\	cul-	.	4.dd\	nos	.	4D/	4D/	4dd\	.	4ff#\	.
.	.	.	.	16f#/	.	.	16a\	.	.	.	.	.	.	.	.	.	.	.	.	.	.	.	.	.	.	.
.	.	.	.	16a/	.	.	(16dd\	.	.	.	.	.	.	.	.	.	.	.	.	.	.	.	.	.	.	.
.	.	.	.	16f#/JJ	.	.	16ff#\JJ	.	.	.	.	.	.	.	.	.	.	.	.	.	.	.	.	.	.	.
*	*	*	*	*	*	*	*	*	*	*	*	*4\left	*	*	*	*	*	*	*	*	*	*	*	*	*	*
.	.	.	.	(<16e/LL	.	.	16ggn\LL	.	2D\	-tos	.	4g#\)	.	.	.	.	.	.	.	.	2D^>/	2A^>/	2cc#\	.	2ee\	.
.	.	.	.	16gn/	.	.	16cc#\	.	.	.	.	.	.	.	.	.	.	.	.	.	.	.	.	.	.	.
.	.	.	.	16a/	.	.	16ee\	.	.	.	.	.	.	.	8e\	-pis	.	8a\	cul-	.	.	.	.	.	.	.
.	.	.	.	16e/JJ)	.	.	16gg\JJ	.	.	.	.	.	.	.	.	.	.	.	.	.	.	.	.	.	.	.
*	*	*	*	*	*	*	*	*	*	*	*	*4\right	*	*	*	*	*	*	*	*	*	*	*	*	*	*
.	.	.	.	16c#/LL	.	.	16ee\LL	.	.	.	.	4e\	-tos	.	8c#\	.	.	8a\	-pis	.	.	.	.	.	.	.
.	.	.	.	16e/	.	.	16cc#\	.	.	.	.	.	.	.	.	.	.	.	.	.	.	.	.	.	.	.
.	.	.	.	16g/	.	.	16a\)	.	.	.	.	.	.	.	8c#\	so-	.	8a\	so-	.	.	.	.	.	.	.
.	.	.	.	16e/JJ	.	.	16cc#\JJ	.	.	.	.	.	.	.	.	.	.	.	.	.	.	.	.	.	.	.
*	*	*	*	*v	*v	*	*	*	*	*	*	*	*	*	*	*	*	*	*	*	*	*	*	*	*	*
=59	=59	=59	=59	=59	=59	=59	=59	=59	=59	=59	=59	=59	=59	=59	=59	=59	=59	=59	=59	=59	=59	=59	=59	=59	=59
*	*	*	*	*	*	*	*	*	*	*	*	*	*	*	*	*	*4\left	*	*	*	*	*	*	*	*
2.D\]	.	2.D/]	.	16f#/LL	.	16dd\LL	.	4D\	mi-	.	(4d\	mi-	.	(4d\	-lu-	.	(4ff#\	-lu-	.	4D/	4A/	4dd\	.	4ff#\	.
.	.	.	.	16d/	.	(16f#\	.	.	.	.	.	.	.	.	.	.	.	.	.	.	.	.	.	.	.
.	.	.	.	16f#/	.	16a\	.	.	.	.	.	.	.	.	.	.	.	.	.	.	.	.	.	.	.
.	.	.	.	(16a/JJ	.	16dd\JJ	.	.	.	.	.	.	.	.	.	.	.	.	.	.	.	.	.	.	.
*	*	*	*	*	*	*	*	*	*	*	*	*	*	*	*	*	*4\right	*	*	*	*	*	*	*	*
.	.	.	.	16gn/LL	.	16ee\LL	.	2D\	-tes	.	4e\)	-tes	.	4c#\)	.	.	4ggn\)	.	.	4r	4r	2cc#\	.	2ee\	.
.	.	.	.	16e/	.	16a\	.	.	.	.	.	.	.	.	.	.	.	.	.	.	.	.	.	.	.
.	.	.	.	16a/	.	16cc#\	.	.	.	.	.	.	.	.	.	.	.	.	.	.	.	.	.	.	.
.	.	.	.	16g/JJ	.	16ee\JJ	.	.	.	.	.	.	.	.	.	.	.	.	.	.	.	.	.	.	.
.	.	.	.	16e/LL	.	16cc#\LL	.	.	.	.	4c#\	.	.	4g#\	-tos	.	4ee\	-tos	.	4e\	4e\	.	.	.	.
.	.	.	.	16c#/	.	16a\	.	.	.	.	.	.	.	.	.	.	.	.	.	.	.	.	.	.	.
.	.	.	.	16A/)	.	16e\)	.	.	.	.	.	.	.	.	.	.	.	.	.	.	.	.	.	.	.
.	.	.	.	16c#/JJ	.	16a\JJ	.	.	.	.	.	.	.	.	.	.	.	.	.	.	.	.	.	.	.
=60	=60	=60	=60	=60	=60	=60	=60	=60	=60	=60	=60	=60	=60	=60	=60	=60	=60	=60	=60	=60	=60	=60	=60	=60	=60
!	!	!	!	!	!	!	!	!	!	!	!	!	!	!	!	!	!	!	!	!	!LO:LB:g=original	!	!	!	!
*	*	*	*	*	*	*	*	*	*ij	*	*	*ij	*	*	*	*	*	*	*	*	*	*	*	*	*
4D\	.	4D/	.	16d/LL	.	16ff#\LL	.	4D\	mi-	.	4f#'\	mi-	.	4f#\	mi-	.	4dd\	mi-	.	4A\	4A/	4dd\	.	4ff#\	.
.	.	.	.	(16f#/	.	(16a\	.	.	.	.	.	.	.	.	.	.	.	.	.	.	.	.	.	.	.
.	.	.	.	16a/	.	16dd\	.	.	.	.	.	.	.	.	.	.	.	.	.	.	.	.	.	.	.
.	.	.	.	16dd/JJ	.	16ff#\JJ	.	.	.	.	.	.	.	.	.	.	.	.	.	.	.	.	.	.	.
*	*	*	*	*	*	*	*	*	*	*	*4\left	*	*	*	*	*	*	*	*	*	*	*	*	*4\right	*
2GG#/	.	2Gn/	.	16b/LL	.	16ggn\LL	.	2G#\	-tes	.	(4gn\	-tes	.	4d\	-tes	.	(4b\	-tes	.	4r	4r	4b\	.	4gg#\	.
*	*	*	*	*	*	*	*	*	*Xij	*	*	*Xij	*	*	*	*	*	*	*	*	*	*	*	*	*
.	.	.	.	16g#/	.	16b\	.	.	.	.	.	.	.	.	.	.	.	.	.	.	.	.	.	.	.
.	.	.	.	16b/	.	16ee\	.	.	.	.	.	.	.	.	.	.	.	.	.	.	.	.	.	.	.
.	.	.	.	16ee/JJ	.	16gg\JJ	.	.	.	.	.	.	.	.	.	.	.	.	.	.	.	.	.	.	.
*	*	*	*	*	*	*	*	*	*	*	*4\right	*	*	*4\left	*	*	*	*	*	*	*	*	*	*	*
.	.	.	.	16b/LL	.	16ee\LL	.	.	.	.	4e\)	.	.	4b\	.	.	4ee\)	.	.	4r	4r	4g#\	.	4ee\	.
.	.	.	.	16e/	.	16g#\	.	.	.	.	.	.	.	.	.	.	.	.	.	.	.	.	.	.	.
.	.	.	.	16g#/Z)	.	16b\	.	.	.	.	.	.	.	.	.	.	.	.	.	.	.	.	.	.	.
.	.	.	.	16b/JJ	.	16ee\JJ)	.	.	.	.	.	.	.	.	.	.	.	.	.	.	.	.	.	.	.
=61	=61	=61	=61	=61	=61	=61	=61	=61	=61	=61	=61	=61	=61	=61	=61	=61	=61	=61	=61	=61	=61	=61	=61	=61	=61
!	!	!	!	!LO:LB:g=original	!	!LO:LB:g=original	!	!	!	!	!LO:LB:g=original	!	!	!	!	!	!LO:LB:g=original	!	!	!	!	!	!	!	!
*tremolo	*	*	*	*	*	*	*	*	*	*	*	*	*	*	*	*	*	*	*	*	*	*	*	*	*
8AA/L	.	8A/L	.	16f#/LL	.	16dd\LL	.	2A\	fac	.	2f#\	fac	.	2a\	fac	.	2dd\	fac	.	4r	4r	2f#/	.	2dd\	.
.	.	.	.	16d/	.	&(16f#\	.	.	.	.	.	.	.	.	.	.	.	.	.	.	.	.	.	.	.
8AA/	.	8A/	.	16f#/	.	16a\	.	.	.	.	.	.	.	.	.	.	.	.	.	.	.	.	.	.	.
.	.	.	.	16a/JJ	.	16dd\JJ	.	.	.	.	.	.	.	.	.	.	.	.	.	.	.	.	.	.	.
8AA/	.	8A/	.	(16dd\LL	.	16ff#\LL	.	.	.	.	.	.	.	.	.	.	.	.	.	4d\	4f#\	.	.	.	.
.	.	.	.	16a\	.	16dd\	.	.	.	.	.	.	.	.	.	.	.	.	.	.	.	.	.	.	.
8AA/	.	8A/	.	16f#\	.	16a\	.	.	.	.	.	.	.	.	.	.	.	.	.	.	.	.	.	.	.
.	.	.	.	16d\JJ	.	16f#\JJ	.	.	.	.	.	.	.	.	.	.	.	.	.	.	.	.	.	.	.
*	*	*	*	*	*	*	*	*	*	*	*	*	*	*4\right	*	*	*	*	*	*	*	*	*	*	*
!	!	!	!	!	!	!	!	!LO:SIC:l:s=et:v	!	!	!	!	!	!	!	!	!	!	!	!	!	!	!	!	!
8AA/	.	8A/	.	16c#/LL	.	16e/LL	.	4A\	est	.	4e\	et	.	4a\	et	.	4cc#\	et	.	4A\	4e\	4e/	.	4cc#\	.
.	.	.	.	16e/	.	(16g#/&)	.	.	.	.	.	.	.	.	.	.	.	.	.	.	.	.	.	.	.
8AA/J	.	8A/J	.	16a/)	.	16a/	.	.	.	.	.	.	.	.	.	.	.	.	.	.	.	.	.	.	.
.	.	.	.	16gn/JJ	.	16cc#/JJ)	.	.	.	.	.	.	.	.	.	.	.	.	.	.	.	.	.	.	.
=62	=62	=62	=62	=62	=62	=62	=62	=62	=62	=62	=62	=62	=62	=62	=62	=62	=62	=62	=62	=62	=62	=62	=62	=62	=62
!	!	!	!	!	!	!	!	!	!	!	!	!	!	!	!	!	!	!	!	!LO:LB:g=original	!	!	!	!LO:LB:g=original	!
8AA/L	.	8A/L	.	16f#/LL	.	16dd\LL	.	2.A\	cas-	.	(2d\	cas-	.	(2a\	ca-	.	(2ff#\	cas-	.	4F#/	4d\	2f#/	.	2dd\	.
.	.	.	.	(16d/	.	16f#\	.	.	.	.	.	.	.	.	.	.	.	.	.	.	.	.	.	.	.
8AA/	.	8A/	.	16f#/	.	(16a\	.	.	.	.	.	.	.	.	.	.	.	.	.	.	.	.	.	.	.
.	.	.	.	16a/JJ	.	16dd\JJ	.	.	.	.	.	.	.	.	.	.	.	.	.	.	.	.	.	.	.
8AA/	.	8A/	.	16dd/LL	.	16ff#\LL	.	.	.	.	.	.	.	.	.	.	.	.	.	4r	4r	.	.	.	.
.	.	.	.	16a/	.	16dd\	.	.	.	.	.	.	.	.	.	.	.	.	.	.	.	.	.	.	.
8AA/	.	8A/	.	16f#/	.	16a\	.	.	.	.	.	.	.	.	.	.	.	.	.	.	.	.	.	.	.
.	.	.	.	16d/JJ	.	16f#\JJ	.	.	.	.	.	.	.	.	.	.	.	.	.	.	.	.	.	.	.
8AA/	.	8A/	.	16c#/LL	.	16e/LL	.	.	.	.	4c#\	-tos	.	8a\L	.	.	4ee\)	.	.	4r	4r	4g#/	.	4cc#\	.
.	.	.	.	16e/	.	16g#/)	.	.	.	.	.	.	.	.	.	.	.	.	.	.	.	.	.	.	.
8AA/J	.	8A/J	.	16a/	.	16a/	.	.	.	.	.	.	.	8g#\J)	.	.	.	.	.	.	.	.	.	.	.
.	.	.	.	16gn/JJ)	.	16cc#/JJ	.	.	.	.	.	.	.	.	.	.	.	.	.	.	.	.	.	.	.
=63	=63	=63	=63	=63	=63	=63	=63	=63	=63	=63	=63	=63	=63	=63	=63	=63	=63	=63	=63	=63	=63	=63	=63	=63	=63
!LO:LB:g=original	!	!	!	!	!	!	!	!	!	!	!	!	!	!LO:LB:g=original	!	!	!	!	!	!	!	!	!	!	!
8D\L	.	8d\L	.	4f#'/	.	16dd\LL	.	2D\	-tos.	.	2d\)	.	.	2f#\	-stos	.	2dd\	-tos	.	2F#/	2d\	4f#/	.	2dd\	.
.	.	.	.	.	.	16a\	.	.	.	.	.	.	.	.	.	.	.	.	.	.	.	.	.	.	.
8D\	.	8d\	.	.	.	(16f#\	.	.	.	.	.	.	.	.	.	.	.	.	.	.	.	.	.	.	.
.	.	.	.	.	.	16dd\JJ	.	.	.	.	.	.	.	.	.	.	.	.	.	.	.	.	.	.	.
8D\	.	8d\	.	(16f#/LL	.	4a\	.	.	.	.	.	.	.	.	.	.	.	.	.	.	.	4r	.	.	.
.	.	.	.	16d/	.	.	.	.	.	.	.	.	.	.	.	.	.	.	.	.	.	.	.	.	.
8D\	.	8d\	.	16A/	.	.	.	.	.	.	.	.	.	.	.	.	.	.	.	.	.	.	.	.	.
.	.	.	.	16d/JJ)	.	.	.	.	.	.	.	.	.	.	.	.	.	.	.	.	.	.	.	.	.
8D\	.	8d\	.	8f#/L	.	8dd\L)	.	8D\	Vi-	.	8A\	Vi-	.	8f#\	vi-	.	8dd\	vi-	.	4r	4r	4r	.	4r	.
8D\J	.	8d\J	.	8f#/J	.	8dd\J	.	8D\	-tam	.	8A\	-tam	.	8f#\	-tam	.	8dd\	-tam	.	.	.	.	.	.	.
=64	=64	=64	=64	=64	=64	=64	=64	=64	=64	=64	=64	=64	=64	=64	=64	=64	=64	=64	=64	=64	=64	=64	=64	=64	=64
8BB/L	.	8B/L	.	[4f#/	.	16ee\LL	.	2BB/	prae-	.	2B\	prae-	.	2f#\	prae-	.	2dd\	prae-	.	4r	4r	4r	.	4r	.
.	.	.	.	.	.	(16b\	.	.	.	.	.	.	.	.	.	.	.	.	.	.	.	.	.	.	.
8BB/	.	8B/	.	.	.	16f#\	.	.	.	.	.	.	.	.	.	.	.	.	.	.	.	.	.	.	.
.	.	.	.	.	.	16dd\JJ	.	.	.	.	.	.	.	.	.	.	.	.	.	.	.	.	.	.	.
8BB/	.	8B/	.	16f#/LL]	.	4b\	.	.	.	.	.	.	.	.	.	.	.	.	.	4F#/	4f#\	4cc#\	.	4ee\	.
.	.	.	.	16d/	.	.	.	.	.	.	.	.	.	.	.	.	.	.	.	.	.	.	.	.	.
8BB/J	.	8B/J	.	16A/	.	.	.	.	.	.	.	.	.	.	.	.	.	.	.	.	.	.	.	.	.
.	.	.	.	16d/JJ	.	.	.	.	.	.	.	.	.	.	.	.	.	.	.	.	.	.	.	.	.
*Xtremolo	*	*Xtremolo	*	*	*	*	*	*	*	*	*	*	*	*	*	*	*	*	*	*	*	*	*	*	*
8AA#X/L	.	8A#X/L	.	8c#'/L	.	8ee\L)	.	4AA#X/	-sta	.	4c#\	-sta	.	4f#\	-sta	.	4ee\	-sta	.	4F#/	4f#\	4cc#\	.	4ee\	.
8AA#/J	.	8A#/J	.	8c#'/J	.	8ee\J	.	.	.	.	.	.	.	.	.	.	.	.	.	.	.	.	.	.	.
=65	=65	=65	=65	=65	=65	=65	=65	=65	=65	=65	=65	=65	=65	=65	=65	=65	=65	=65	=65	=65	=65	=65	=65	=65	=65
!	!	!	!	!LO:LB:g=original	!	!LO:LB:g=original	!	!LO:LB:g=original	!	!	!	!	!	!	!	!	!	!	!	!	!	!LO:LB:g=original	!	!	!
*tremolo	*	*tremolo	*	*	*	*	*	*	*	*	*	*	*	*	*	*	*	*	*	*	*	*	*	*	*
8BB/L	.	8B/L	.	4B/	.	(16dd\LL	.	4BB/	pu-	.	4d\	pu-	.	4f#\	pu-	.	4dd\	pu-	.	2F#/	2f#\	2b\	.	2dd\	.
.	.	.	.	.	.	16a\	.	.	.	.	.	.	.	.	.	.	.	.	.	.	.	.	.	.	.
8BB/	.	8B/	.	.	.	16f#\	.	.	.	.	.	.	.	.	.	.	.	.	.	.	.	.	.	.	.
.	.	.	.	.	.	16dd\JJ	.	.	.	.	.	.	.	.	.	.	.	.	.	.	.	.	.	.	.
8BB/	.	8B/	.	(16B/LL	.	4b\)	.	4BB/	-ram	.	4d\	-ram	.	4f#\	-ram	.	4dd\	-ram,	.	.	.	.	.	.	.
.	.	.	.	16d/	.	.	.	.	.	.	.	.	.	.	.	.	.	.	.	.	.	.	.	.	.
8BB/	.	8B/	.	16f#/	.	.	.	.	.	.	.	.	.	.	.	.	.	.	.	.	.	.	.	.	.
.	.	.	.	16B/JJ)	.	.	.	.	.	.	.	.	.	.	.	.	.	.	.	.	.	.	.	.	.
8BB/	.	8B/	.	8d/L	.	8b\L	.	8BB/	i-	.	8B\	i-	.	8f#\	i-	.	8dd\	i-	.	4r	4r	4r	.	4r	.
!	!	!	!	!	!	!	!	!LO:SIC:l:s=-ter:v	!	!	!	!	!	!	!	!	!LO:SIC:l:s=-ter:v	!	!	!	!	!	!	!	!
8BB/J	.	8B/J	.	8d/J	.	8b\J	.	8BB/	-tes	.	8B\	-ter	.	8f#\	-ter	.	8dd\	-tes	.	.	.	.	.	.	.
=66	=66	=66	=66	=66	=66	=66	=66	=66	=66	=66	=66	=66	=66	=66	=66	=66	=66	=66	=66	=66	=66	=66	=66	=66	=66
!	!	!	!	!	!	!	!	!	!	!	!LO:LB:g=original	!	!	!	!	!	!	!	!	!	!	!	!	!	!
!	!	!LO:TX:b:t=d.	!	!	!	!	!	!	!	!	!	!	!	!	!	!	!	!	!	!	!	!	!	!	!
!	!	!LO:SIC:s=8d:v:cały takt	!	!	!	!	!	!	!	!	!	!	!	!	!	!	!	!	!	!	!	!	!	!	!
8D\L	.	8c#\L	.	4B/	.	(16b\LL	.	2E\	pa-	.	2B\	pa-	.	2g#\	pa-	.	2b\	pa-	.	4r	4r	4r	.	4r	.
.	.	.	.	.	.	16g#\	.	.	.	.	.	.	.	.	.	.	.	.	.	.	.	.	.	.	.
8D\	.	8c#\	.	.	.	16e\	.	.	.	.	.	.	.	.	.	.	.	.	.	.	.	.	.	.	.
.	.	.	.	.	.	16b\JJ	.	.	.	.	.	.	.	.	.	.	.	.	.	.	.	.	.	.	.
8D\	.	8c#\	.	16e/LL	.	4g#/	.	.	.	.	.	.	.	.	.	.	.	.	.	4e\	4e\	4g#\	.	4b\	.
.	.	.	.	(16B/	.	.	.	.	.	.	.	.	.	.	.	.	.	.	.	.	.	.	.	.	.
8D\	.	8c#\	.	16G#/)	.	.	.	.	.	.	.	.	.	.	.	.	.	.	.	.	.	.	.	.	.
.	.	.	.	16B/JJ	.	.	.	.	.	.	.	.	.	.	.	.	.	.	.	.	.	.	.	.	.
8D\	.	8c#\	.	8gn/L	.	8a-/L	.	4E\	-ra	.	4c#\	-ra	.	4fn\	-ra	.	4a#X\	-ra	.	4e\	4e\	4f#\	.	4a\	.
8D\J	.	8c#\J	.	8g/J	.	8a-/J)	.	.	.	.	.	.	.	.	.	.	.	.	.	.	.	.	.	.	.
=67	=67	=67	=67	=67	=67	=67	=67	=67	=67	=67	=67	=67	=67	=67	=67	=67	=67	=67	=67	=67	=67	=67	=67	=67	=67
!	!	!	!	!	!	!	!	!	!	!	!	!	!	!	!	!	!LO:LB:g=original	!	!	!	!	!	!	!	!
!	!	!LO:TX:b:t=e	!	!	!	!	!	!	!	!	!	!	!	!	!	!	!	!	!	!	!	!	!	!	!
!	!	!LO:SIC:s=8e:v:cała półnuta	!	!	!	!	!	!	!	!	!	!	!	!	!	!	!	!	!	!	!	!	!	!	!
8E\L	.	8d\L	.	4g#X/	.	(>16b/LL	.	4E\	tu-	.	4B\	tu-	.	4g#\	tu-	.	4b\	tu-	.	2e\	2e\	2g#\	.	2b\	.
.	.	.	.	.	.	16g#/	.	.	.	.	.	.	.	.	.	.	.	.	.	.	.	.	.	.	.
8E\	.	8d\	.	.	.	16e/	.	.	.	.	.	.	.	.	.	.	.	.	.	.	.	.	.	.	.
.	.	.	.	.	.	16b/JJ	.	.	.	.	.	.	.	.	.	.	.	.	.	.	.	.	.	.	.
8E\	.	8d\	.	16e/LL	.	4g#/	.	4E\	-tum,	.	4B\	-tum	.	4g#\	-tum,	.	4b\	-tum,	.	.	.	.	.	.	.
.	.	.	.	16B/	.	.	.	.	.	.	.	.	.	.	.	.	.	.	.	.	.	.	.	.	.
8E\J	.	8d\J	.	16G#/	.	.	.	.	.	.	.	.	.	.	.	.	.	.	.	.	.	.	.	.	.
.	.	.	.	16e/JJ	.	.	.	.	.	.	.	.	.	.	.	.	.	.	.	.	.	.	.	.	.
*Xtremolo	*	*Xtremolo	*	*	*	*	*	*	*	*	*	*	*	*	*	*	*	*	*	*	*	*	*	*	*
!	!	!LO:TX:b:t=gis	!	!	!	!	!	!	!	!	!	!	!	!	!	!	!	!	!	!	!	!	!	!	!
!	!	!LO:SIC:s=8G#:v	!	!	!	!	!	!	!	!	!	!	!	!	!	!	!	!	!	!	!	!	!	!	!
8GG#/L	.	8F#/L	.	8g#/L	.	8b/L)	.	8GG#/	ut	.	8e\	et	.	8e\	ut	.	8b\	ut	.	4r	4r	4r	.	4r	.
!	!	!LO:SIC:s=8G#:v	!	!	!	!	!	!	!	!	!	!	!	!	!	!	!	!	!	!	!	!	!	!	!
8GG#/J	.	8F#/J	.	8g#/J	.	8b/J	.	8GG#/	vi-	.	8e\	-vi-	.	8e\	vi-	.	8b\	vi-	.	.	.	.	.	.	.
=68	=68	=68	=68	=68	=68	=68	=68	=68	=68	=68	=68	=68	=68	=68	=68	=68	=68	=68	=68	=68	=68	=68	=68	=68	=68
!	!	!	!	!	!	!	!	!	!	!	!	!	!	!LO:LB:g=original	!	!	!	!	!	!	!LO:LB:g=original	!	!	!	!
*tremolo	*	*tremolo	*	*	*	*	*	*	*	*	*	*	*	*	*	*	*	*	*	*	*	*	*	*	*
!	!	!LO:TX:b:t=a	!	!	!	!	!	!	!	!	!	!	!	!	!	!	!	!	!	!	!	!	!	!	!
!	!	!LO:SIC:s=8A:v:cały takt	!	!	!	!	!	!	!	!	!	!	!	!	!	!	!	!	!	!	!	!	!	!	!
8AA/L	.	8G#/L	.	[4a/	.	(16cc#\LL	.	2AA/	-den-	.	2e\	-den-	.	2e\	-den-	.	2cc#\	-den-	.	4r	4r	4r	.	4r	.
.	.	.	.	.	.	16a\	.	.	.	.	.	.	.	.	.	.	.	.	.	.	.	.	.	.	.
8AA/	.	8G#/	.	.	.	16e\	.	.	.	.	.	.	.	.	.	.	.	.	.	.	.	.	.	.	.
.	.	.	.	.	.	16cc#\JJ	.	.	.	.	.	.	.	.	.	.	.	.	.	.	.	.	.	.	.
8AA/	.	8G#/	.	16a/LL]	.	4a\	.	.	.	.	.	.	.	.	.	.	.	.	.	4A/	4e\	4b\	.	4cc#\	.
.	.	.	.	16e/	.	.	.	.	.	.	.	.	.	.	.	.	.	.	.	.	.	.	.	.	.
8AA/	.	8G#/	.	16c#/	.	.	.	.	.	.	.	.	.	.	.	.	.	.	.	.	.	.	.	.	.
.	.	.	.	16e/JJ	.	.	.	.	.	.	.	.	.	.	.	.	.	.	.	.	.	.	.	.	.
8AA/	.	8G#/	.	8a/L	.	8cc#\L)	.	4AA/	-tes	.	4c#\	-tes	.	4e\	-tes	.	4cc#\	-tes	.	4A/	4e\	4b\	.	4cc#\	.
8AA/J	.	8G#/J	.	8a/J	.	8cc#\J	.	.	.	.	.	.	.	.	.	.	.	.	.	.	.	.	.	.	.
=69	=69	=69	=69	=69	=69	=69	=69	=69	=69	=69	=69	=69	=69	=69	=69	=69	=69	=69	=69	=69	=69	=69	=69	=69	=69
!	!	!LO:TX:a:t=fis	!	!	!	!	!	!	!	!	!	!	!	!	!	!	!	!	!	!	!	!	!	!	!
!	!	!LO:SIC:s=8f#:v:cały takt	!	!	!	!	!	!	!	!	!	!	!	!	!	!	!	!	!	!	!	!	!	!	!
8F#\L	.	8e\L	.	4a/	.	(16cc#\LL	.	4F#\	Je-	.	4c#\	Je-	.	4f#\	Je-	.	4a\	Je-	.	2F#/	2f#\	2a\	.	2cc#\	.
.	.	.	.	.	.	16a\	.	.	.	.	.	.	.	.	.	.	.	.	.	.	.	.	.	.	.
8F#\	.	8e\	.	.	.	16e\	.	.	.	.	.	.	.	.	.	.	.	.	.	.	.	.	.	.	.
.	.	.	.	.	.	16cc#\JJ	.	.	.	.	.	.	.	.	.	.	.	.	.	.	.	.	.	.	.
8F#\	.	8e\	.	16a/LL	.	4a\	.	4F#\	-sum	.	4c#\	-sum	.	4f#\	-sum	.	4a\	-sum	.	.	.	.	.	.	.
.	.	.	.	16f#/	.	.	.	.	.	.	.	.	.	.	.	.	.	.	.	.	.	.	.	.	.
8F#\	.	8e\	.	16d/	.	.	.	.	.	.	.	.	.	.	.	.	.	.	.	.	.	.	.	.	.
.	.	.	.	16f#/JJ	.	.	.	.	.	.	.	.	.	.	.	.	.	.	.	.	.	.	.	.	.
8F#\	.	8e\	.	8a/L	.	8cc#\L)	.	8F#\	sem-	.	8c#\	sem-	.	8f#\	sem-	.	8a\	sem-	.	4r	4r	4r	.	4r	.
8F#\J	.	8e\J	.	8a/J	.	8cc#\J	.	8F#\	-per	.	8c#\	-per	.	8f#\	-per	.	8a\	-per	.	.	.	.	.	.	.
=70	=70	=70	=70	=70	=70	=70	=70	=70	=70	=70	=70	=70	=70	=70	=70	=70	=70	=70	=70	=70	=70	=70	=70	=70	=70
!	!	!	!	!	!	!LO:PB:g=original	!	!	!	!	!	!	!	!	!	!	!	!	!	!LO:LB:g=original	!	!	!	!LO:LB:g=original	!
!	!	!LO:TX:b:t=h.	!	!LO:TX:b:i:t=volti	!	!	!	!	!	!	!	!	!	!	!	!	!	!	!	!	!	!	!	!	!
!	!	!LO:SIC:s=8B:v:cały takt	!	!	!	!	!	!	!	!	!	!	!	!	!	!	!	!	!	!	!	!	!	!	!
8BB/L	.	8A/L	.	4a/	.	16dd#X\LL	.	2BB/	col-	.	2d#X\	col-	.	2f#\	col-	.	2a\	col-	.	4r	4r	4r	.	4r	.
.	.	.	.	.	.	16a\	.	.	.	.	.	.	.	.	.	.	.	.	.	.	.	.	.	.	.
8BB/	.	8A/	.	.	.	16f#\	.	.	.	.	.	.	.	.	.	.	.	.	.	.	.	.	.	.	.
.	.	.	.	.	.	16dd#\JJ	.	.	.	.	.	.	.	.	.	.	.	.	.	.	.	.	.	.	.
8BB/	.	8A/	.	16a/LL	.	4a\	.	.	.	.	.	.	.	.	.	.	.	.	.	4f#\	4f#\	4a\	.	4dd#X\	.
.	.	.	.	16f#/	.	.	.	.	.	.	.	.	.	.	.	.	.	.	.	.	.	.	.	.	.
8BB/	.	8A/	.	16d/	.	.	.	.	.	.	.	.	.	.	.	.	.	.	.	.	.	.	.	.	.
.	.	.	.	16f#/JJ	.	.	.	.	.	.	.	.	.	.	.	.	.	.	.	.	.	.	.	.	.
!	!	!	!	!	!	!	!	!	!	!	!LO:SIC:l:s=-lae-:v	!	!	!LO:SIC:l:s=-lae:v	!	!	!	!	!	!	!	!	!	!	!
8BB/	.	8A/	.	8a/L	.	8dd#\L	.	4BB/	-lae-	.	4d#\	-la-	.	4f#\	-la-	.	4a\	-lae-	.	4f#\	4f#\	4a\	.	4dd#\	.
8BB/J	.	8A/J	.	8a/J	.	8dd#\J	.	.	.	.	.	.	.	.	.	.	.	.	.	.	.	.	.	.	.
=71	=71	=71	=71	=71	=71	=71	=71	=71	=71	=71	=71	=71	=71	=71	=71	=71	=71	=71	=71	=71	=71	=71	=71	=71	=71
!	!	!	!	!LO:PB:g=original	!	!	!	!LO:LB:g=original	!	!	!LO:LB:g=original	!	!	!	!	!	!	!	!	!	!	!	!	!	!
!	!	!LO:TX:a:t=d	!	!	!	!	!	!	!	!	!	!	!	!	!	!	!	!	!	!	!	!	!	!	!
!	!	!LO:TX:b:t=e	!	!	!	!	!	!	!	!	!	!	!	!	!	!	!	!	!	!	!	!	!	!	!
!	!	!LO:SIC:s=8e:v:cały takt	!	!	!	!	!	!	!	!	!	!	!	!	!	!	!	!	!	!	!	!	!	!	!
8E\L	.	8d\L	.	(4g#/	.	16ee\LL	.	2.E\	-te-	.	4e\	-te-	.	2e\	-te-	.	2g#\	-te-	.	2e\	2e\	2g#\	.	2ee\	.
.	.	.	.	.	.	16b\	.	.	.	.	.	.	.	.	.	.	.	.	.	.	.	.	.	.	.
8E\	.	8d\	.	.	.	16g#\	.	.	.	.	.	.	.	.	.	.	.	.	.	.	.	.	.	.	.
.	.	.	.	.	.	16ee\JJ	.	.	.	.	.	.	.	.	.	.	.	.	.	.	.	.	.	.	.
8E\	.	8d\	.	16g#/LL	.	4b\	.	.	.	.	(4B\	.	.	.	.	.	.	.	.	.	.	.	.	.	.
.	.	.	.	16e/)	.	.	.	.	.	.	.	.	.	.	.	.	.	.	.	.	.	.	.	.	.
8E\	.	8d\	.	16B/	.	.	.	.	.	.	.	.	.	.	.	.	.	.	.	.	.	.	.	.	.
.	.	.	.	16g#/JJ	.	.	.	.	.	.	.	.	.	.	.	.	.	.	.	.	.	.	.	.	.
8E\	.	8d\	.	(8aL 8f#/	.	(8dd#X\L	.	.	.	.	8A\L)	.	.	8d#X\L	.	.	(8f#\L	.	.	8f#\L	8f#\L	8a\L	.	8dd#X\L	.
8E\J	.	8d\J	.	8g#/J)	.	8dd#\J	.	.	.	.	8G#\J	.	.	8e\J	.	.	8g#\J)	.	.	8e\J	8e\J	8g#\J	.	8ee\J	.
=72	=72	=72	=72	=72	=72	=72	=72	=72	=72	=72	=72	=72	=72	=72	=72	=72	=72	=72	=72	=72	=72	=72	=72	=72	=72
!LO:LB:g=original	!	!	!	!	!	!	!	!	!	!	!	!	!	!	!	!	!	!	!	!	!	!	!	!	!
!	!	!LO:TX:a:t=d	!	!	!	!	!	!	!	!	!	!	!	!	!	!	!	!	!	!	!	!	!	!	!
!	!	!LO:TX:b:t=e	!	!	!	!	!	!	!	!	!	!	!	!	!	!	!	!	!	!	!	!	!	!	!
!	!	!LO:SIC:s=8e:v:cały takt	!	!	!	!	!	!	!	!	!	!	!	!	!	!	!	!	!	!	!	!	!	!	!
8E\L	.	8d\L	.	4g#/	.	16ee\LL)	.	2E\	-mur.	.	2B\	-mur	.	2e\	-mur.	.	2a\	mur	.	2e\	2e\	2g#\	.	2ee\	.
.	.	.	.	.	.	16g#\	.	.	.	.	.	.	.	.	.	.	.	.	.	.	.	.	.	.	.
8E\	.	8d\	.	.	.	16b\	.	.	.	.	.	.	.	.	.	.	.	.	.	.	.	.	.	.	.
.	.	.	.	.	.	16ee\JJ	.	.	.	.	.	.	.	.	.	.	.	.	.	.	.	.	.	.	.
8E\	.	8d\	.	16g#/LL	.	16b\LL	.	.	.	.	.	.	.	.	.	.	.	.	.	.	.	.	.	.	.
.	.	.	.	16e/	.	16g#\	.	.	.	.	.	.	.	.	.	.	.	.	.	.	.	.	.	.	.
8E\	.	8d\	.	16B/	.	16e\	.	.	.	.	.	.	.	.	.	.	.	.	.	.	.	.	.	.	.
.	.	.	.	16g#/JJ	.	16b\JJ	.	.	.	.	.	.	.	.	.	.	.	.	.	.	.	.	.	.	.
8E\	.	8d\	.	16e/LL	.	16g#/LL	.	4r	.	.	4r	.	.	4r	.	.	4r	.	.	4r	4r	4r	.	4r	.
.	.	.	.	16B/	.	16e/	.	.	.	.	.	.	.	.	.	.	.	.	.	.	.	.	.	.	.
8E\J	.	8d\J	.	16G#/	.	16B/	.	.	.	.	.	.	.	.	.	.	.	.	.	.	.	.	.	.	.
.	.	.	.	16e/JJ	.	16g#/JJ	.	.	.	.	.	.	.	.	.	.	.	.	.	.	.	.	.	.	.
*Xtremolo	*	*Xtremolo	*	*	*	*	*	*	*	*	*	*	*	*	*	*	*	*	*	*	*	*	*	*	*
=73	=73	=73	=73	=73	=73	=73	=73	=73	=73	=73	=73	=73	=73	=73	=73	=73	=73	=73	=73	=73	=73	=73	=73	=73	=73
!	!	!LO:LB:g=original	!	!	!	!	!	!	!	!	!	!	!	!LO:PB:g=original	!	!	!LO:LB:g=original	!	!	!	!	!LO:LB:g=original	!	!	!
!	!	!	!	!	!	!	!	!LO:TX:a:t=2.	!	!	!LO:TX:a:t=2.	!	!	!LO:TX:a:t=2.	!	!	!LO:TX:a:t=2	!	!	!LO:TX:a:t=8.	!LO:TX:a:t=8.	!LO:TX:a:t=7.	!	!LO:TX:a:t=7.	!
!	!	!	!	!	!	!	!	!LO:N:vis=0	!	!	!LO:N:vis=0	!	!	!LO:N:vis=0	!	!	!LO:N:vis=0	!	!	!LO:N:vis=00	!LO:N:vis=00	!LO:N:vis=00	!	!LO:N:vis=00	!
2E\	.	2E/	.	2e/	.	2e/	.	1.r	.	.	1.r	.	.	1.r	.	.	1.r	.	.	0.r	0.r	0.r	.	0.r	.
(8D#X\L	.	(8D#X/L	.	(8d#X/L	.	(8d#X/L	.	.	.	.	.	.	.	.	.	.	.	.	.	.	.	.	.	.	.
8E\J)	.	8E/J)	.	8e/J	.	8e/J)	.	.	.	.	.	.	.	.	.	.	.	.	.	.	.	.	.	.	.
=74	=74	=74	=74	=74	=74	=74	=74	=74	=74	=74	=74	=74	=74	=74	=74	=74	=74	=74	=74	=74	=74	=74	=74	=74	=74
2E\	.	2E/	.	4.e/)	.	4.d/	.	.	.	.	.	.	.	.	.	.	.	.	.	.	.	.	.	.	.
.	.	.	.	8A/L	.	(8g#/L	.	.	.	.	.	.	.	.	.	.	.	.	.	.	.	.	.	.	.
4r	.	4r	.	(8c#/	.	8a/	.	.	.	.	.	.	.	.	.	.	.	.	.	.	.	.	.	.	.
!	!	!	!	!	!	!	!	!	!	!	!	!	!	!	!	!	!LO:TX:a:i:t=dolce	!	!	!	!	!	!	!	!
.	.	.	.	8d/J	.	8b/J)	.	.	.	.	.	.	.	.	.	.	.	.	.	.	.	.	.	.	.
=75	=75	=75	=75	=75	=75	=75	=75	=75	=75	=75	=75	=75	=75	=75	=75	=75	=75	=75	=75	=75	=75	=75	=75	=75	=75
!LO:TX:a:t=4.	!	!LO:TX:a:t=4.	!	!	!	!	!	!	!	!	!LO:TX:a:i:t=dolce	!	!	!	!	!	!	!	!	!	!	!	!	!	!
!LO:N:vis=00	!	!LO:N:vis=00	!	!	!	!	!	!	!	!	!	!	!	!	!	!	!	!	!	!	!	!	!	!	!
0.r	.	0.r	.	4c#/)	.	4a/	.	2.A\	Sit	.	(2c#\	Sit-	.	2.a\	sit	.	(2ee\	Sit-	.	.	.	.	.	.	.
.	.	.	.	4r	.	4r	.	.	.	.	.	.	.	.	.	.	.	.	.	.	.	.	.	.	.
.	.	.	.	4r	.	4r	.	.	.	.	4A\)	.	.	.	.	.	4cc#\)	.	.	.	.	.	.	.	.
=76	=76	=76	=76	=76	=76	=76	=76	=76	=76	=76	=76	=76	=76	=76	=76	=76	=76	=76	=76	=76	=76	=76	=76	=76	=76
!	!	!	!	!	!	!LO:LB:g=original	!	!	!	!	!	!	!	!	!	!	!	!	!	!	!	!	!	!	!
!	!	!	!	!LO:TX:a:t=2.	!	!LO:TX:a:t=2.	!	!	!	!	!	!	!	!	!	!	!	!	!	!	!	!	!	!	!
!	!	!	!	!LO:N:vis=0	!	!LO:N:vis=0	!	!	!	!	!	!	!	!	!	!	!	!	!	!	!	!	!	!	!
.	.	.	.	1.r	.	1.r	.	(2A\	la-	.	(2c#\	-la-	.	2.a\	laus	.	(2a\	-la-	.	.	.	.	.	.	.
.	.	.	.	.	.	.	.	4F#\)	-us	.	4f#\)	-us	.	.	.	.	4cc#\)	-us	.	.	.	.	.	.	.
=77	=77	=77	=77	=77	=77	=77	=77	=77	=77	=77	=77	=77	=77	=77	=77	=77	=77	=77	=77	=77	=77	=77	=77	=77	=77
!	!	!	!	!	!	!	!	!	!	!	!	!	!	!	!	!	!	!	!	!LO:N:vis=00	!LO:N:vis=00	!LO:N:vis=0	!	!LO:N:vis=0	!
.	.	.	.	.	.	.	.	2D\	De-	.	2f#\	De-	.	2a\	De-	.	2dd\	De-	.	0.r	0.r	1.r	.	1.r	.
!	!	!	!	!	!	!	!	!LO:SIC:l:s=-o:v	!	!	!	!	!	!	!	!	!	!	!	!	!	!	!	!	!
.	.	.	.	.	.	.	.	4D\	-i	.	4d\	-o	.	4f#\	-o	.	4b\	-o	.	.	.	.	.	.	.
=78	=78	=78	=78	=78	=78	=78	=78	=78	=78	=78	=78	=78	=78	=78	=78	=78	=78	=78	=78	=78	=78	=78	=78	=78	=78
.	.	.	.	4r	.	4r	.	4E\	pa-	.	4d\	pa-	.	4e\	pa-	.	4g#\	pa-	.	.	.	.	.	.	.
.	.	.	.	8r	.	8r	.	4AA/	-tri	.	4c#\	-tri	.	4e\	-tri	.	4a\	-tri	.	.	.	.	.	.	.
.	.	.	.	8a/L	.	(8a\L	.	.	.	.	.	.	.	.	.	.	.	.	.	.	.	.	.	.	.
.	.	.	.	8g#/	.	8b\	.	4r	.	.	4r	.	.	4r	.	.	4r	.	.	.	.	.	.	.	.
.	.	.	.	8a/J	.	8cc#\J)	.	.	.	.	.	.	.	.	.	.	.	.	.	.	.	.	.	.	.
=79	=79	=79	=79	=79	=79	=79	=79	=79	=79	=79	=79	=79	=79	=79	=79	=79	=79	=79	=79	=79	=79	=79	=79	=79	=79
!	!	!	!	!LO:LB:g=original	!	!	!	!	!	!	!LO:LB:g=original	!	!	!	!	!	!	!	!	!	!	!	!	!	!
!	!	!	!	!	!	!	!	!LO:SIC:l:s=sum-:v	!	!	!	!	!	!LO:SIC:l:s=sum-:v	!	!	!	!	!	!	!	!	!	!	!
*tremolo	*	*	*	*	*	*	*	*	*	*	*	*	*	*	*	*	*	*	*	*	*	*	*	*	*
8E\L	.	[2.e\	.	8b'/L	.	8dd\L	.	4.E\	su-	.	8B\	Sum-	.	4.e\	Su-	.	8.dd\	sum-	.	.	.	2.r	.	2.r	.
8E\	.	.	.	8a#X'/J	.	8cc#\J	.	.	.	.	8A#X\	-mo	.	.	.	.	.	.	.	.	.	.	.	.	.
.	.	.	.	.	.	.	.	.	.	.	.	.	.	.	.	.	16cc#\	-mo	.	.	.	.	.	.	.
8E\	.	.	.	8b/L	.	4.dd\	.	.	.	.	4.B\	Chri-	.	.	.	.	4.dd\	Chri-	.	.	.	.	.	.	.
8E\	.	.	.	8g#/	.	.	.	8E\	-mo	.	.	.	.	8e\	-mo	.	.	.	.	.	.	.	.	.	.
8E\	.	.	.	8e/	.	.	.	8E\	Chri-	.	.	.	.	8e\	Chri-	.	.	.	.	.	.	.	.	.	.
8E\J	.	.	.	8g#/J	.	8bb\	.	8E\	-sto	.	8B\	-sto	.	8g#\	-sto	.	8ee\	-sto	.	.	.	.	.	.	.
=80	=80	=80	=80	=80	=80	=80	=80	=80	=80	=80	=80	=80	=80	=80	=80	=80	=80	=80	=80	=80	=80	=80	=80	=80	=80
!	!	!	!	!	!	!	!	!LO:LB:g=original	!	!	!	!	!	!	!	!	!LO:PB:g=original	!	!	!	!	!	!	!	!
8E\L	.	2.e\_	.	8a'/L	.	8cc#\L	.	2E\	De-	.	4A\	de-	.	8a\L	de-	.	4cc#\	de-	.	.	.	4r	.	4r	.
8E\	.	.	.	8e'/	.	(16gg#\L	.	.	.	.	.	.	.	8e\J	.	.	.	.	.	.	.	.	.	.	.
*	*	*	*	*	*	*16\left	*	*	*	*	*	*	*	*	*	*	*	*	*	*	*	*	*	*	*
.	.	.	.	.	.	16aa\JJ)	.	.	.	.	.	.	.	.	.	.	.	.	.	.	.	.	.	.	.
8E\	.	.	.	8c#'/	.	8ee\L	.	.	.	.	8A\	-cus	.	8e\	-cus;	.	8cc#\	-cus	.	.	.	8r	.	8r	.
8E\	.	.	.	8a'/	.	(8a\	.	.	.	.	8r	.	.	8r	.	.	8r	.	.	.	.	8c#/L	.	8a\L	.
8E\	.	.	.	8g#'/	.	8b\	.	4E\	-cus	.	4r	.	.	4r	.	.	4r	.	.	.	.	8e/	.	8b\	.
8E\J	.	.	.	8a'/J	.	8cc#\J)	.	.	.	.	.	.	.	.	.	.	.	.	.	.	.	8a/J	.	8cc#\J	.
=81	=81	=81	=81	=81	=81	=81	=81	=81	=81	=81	=81	=81	=81	=81	=81	=81	=81	=81	=81	=81	=81	=81	=81	=81	=81
!	!	!	!	!	!	!	!	!	!	!	!	!	!	!LO:LB:g=original	!	!	!	!	!	!	!	!	!	!	!
8E\L	.	2.e\_	.	8b'/L	.	8dd\L	.	4.E\	Spi-	.	8d\	spi-	.	4.e\	spi-	.	8b\	Spi-	.	2.e\	2.e\	8b\L	.	8dd\L	.
8E\	.	.	.	8a#X'/J	.	8cc#\J	.	.	.	.	8c#\	-ri-	.	.	.	.	8a#X\	-ri-	.	.	.	8a#X\J	.	8cc#\J	.
8E\	.	.	.	(8b/L	.	4.dd\	.	.	.	.	4.d\	-tu-	.	.	.	.	4.b\	-tu-	.	.	.	2b\	.	2dd\	.
8E\	.	.	.	8g#/	.	.	.	8E\	-ri-	.	.	.	.	8e\	-ri-	.	.	.	.	.	.	.	.	.	.
8E\	.	.	.	8e/	.	.	.	8E\	-tu-	.	.	.	.	8e\	-tu-	.	.	.	.	.	.	.	.	.	.
8E\J	.	.	.	8g#/J)	.	8ee\	.	8E\	-i	.	8e\	-i	.	8g#\	-i	.	8b\	-i	.	.	.	.	.	.	.
=82	=82	=82	=82	=82	=82	=82	=82	=82	=82	=82	=82	=82	=82	=82	=82	=82	=82	=82	=82	=82	=82	=82	=82	=82	=82
8A\L	.	2.e\]	.	8a/L	.	8cc#\L	.	4A\	San-	.	4c#\	san-	.	8a\L	San-	.	4a\	san-	.	2.A/	2.e\	2a\	.	2cc#\	.
*	*	*	*	*	*	*16\right	*	*	*	*	*	*	*	*	*	*	*	*	*	*	*	*	*	*	*
8A\	.	.	.	8e/J	.	(16gg#\L	.	.	.	.	.	.	.	8e\J	.	.	.	.	.	.	.	.	.	.	.
*	*	*	*	*	*	*16left	*	*	*	*	*	*	*	*	*	*	*	*	*	*	*	*	*	*	*
.	.	.	.	.	.	16aa\JJ)	.	.	.	.	.	.	.	.	.	.	.	.	.	.	.	.	.	.	.
8A\	.	.	.	8c#/L	.	8ee\L	.	8A\	-cto	.	8c#\	-cto	.	8e\	-cto	.	8a\	-cto.	.	.	.	.	.	.	.
8A\	.	.	.	8e/	.	(8a\	.	8r	.	.	8r	.	.	8r	.	.	8r	.	.	.	.	.	.	.	.
8A\	.	.	.	8a/	.	8cc#\	.	4r	.	.	4r	.	.	4r	.	.	4r	.	.	.	.	4cc#\	.	4ee\	.
8A\J	.	.	.	8cc#/J	.	8ee\J)	.	.	.	.	.	.	.	.	.	.	.	.	.	.	.	.	.	.	.
*Xtremolo	*	*	*	*	*	*	*	*	*	*	*	*	*	*	*	*	*	*	*	*	*	*	*	*	*
=83	=83	=83	=83	=83	=83	=83	=83	=83	=83	=83	=83	=83	=83	=83	=83	=83	=83	=83	=83	=83	=83	=83	=83	=83	=83
!LO:LB:g=original	!	!	!	!	!	!LO:LB:g=original	!	!	!	!	!	!	!	!	!	!	!	!	!	!	!	!	!	!LO:LB:g=original	!
*	*	*	*	*	*	*16\right	*	*	*	*	*	*	*	*	*	*	*8\left	*	*	*	*	*	*	*4\left	*
8D\L	.	4f# 4d\	.	(16dd\LL	.	(16ff#\LL	.	8D\	tri-	.	8d\	tri-	.	8a\	tri-	.	8ff#\	tri-	.	4d\	4f#\	4dd\	.	4ff#\	.
.	.	.	.	16f#\	.	16a\	.	.	.	.	.	.	.	.	.	.	.	.	.	.	.	.	.	.	.
8D\J	.	.	.	16a\	.	16dd\	.	8D\	-bus	.	8f#\	-bus	.	8a\	-bus	.	8dd\	-bus	.	.	.	.	.	.	.
.	.	.	.	16dd\JJ)	.	16ff#\JJ)	.	.	.	.	.	.	.	.	.	.	.	.	.	.	.	.	.	.	.
*tremolo	*	*	*	*	*	*	*	*	*	*	*	*	*	*	*	*	*	*	*	*	*	*	*	*4\right	*
8E\L	.	4e 4c#\	.	8cc#\L	.	8ee\L	.	4E\	ho-	.	4e\	ho-	.	4a\	ho-	.	4cc#\	ho-	.	4A\	4e\	4a\	.	4cc#\	.
8E\	.	.	.	8a\	.	8cc#\	.	.	.	.	.	.	.	.	.	.	.	.	.	.	.	.	.	.	.
8E\	.	4d 4B\	.	8g#\	.	8b\	.	4E\	-nor	.	4B\	-nor	.	4g#\	-nor	.	4dd\	-nor	.	4e\	4e\	4g#\	.	4dd\	.
8E\J	.	.	.	8b\J	.	8dd\J	.	.	.	.	.	.	.	.	.	.	.	.	.	.	.	.	.	.	.
*Xtremolo	*	*	*	*	*	*	*	*	*	*	*	*	*	*	*	*	*	*	*	*	*	*	*	*	*
=84	=84	=84	=84	=84	=84	=84	=84	=84	=84	=84	=84	=84	=84	=84	=84	=84	=84	=84	=84	=84	=84	=84	=84	=84	=84
!	!	!LO:LB:g=original	!	!	!	!	!	!LO:PB:g=original	!	!	!LO:LB:g=original	!	!	!	!	!	!LO:LB:g=original	!	!	!	!LO:LB:g=original	!	!	!	!
*	*	*	*	*4\right	*	*	*	*	*	*	*	*	*	*	*	*	*	*	*	*	*	*	*	*	*
8F#\L	.	4.c# 4.A\	.	4a\	.	[4cc#\	.	4F#\	u-	.	4A\	u-	.	4a\	u-	.	4cc#\	u-	.	4.A/	4.f#\	4.a\	.	4.cc#\	.
8F#\	.	.	.	.	.	.	.	.	.	.	.	.	.	.	.	.	.	.	.	.	.	.	.	.	.
*	*	*	*	*	*	*	*	*	*	*	*	*	*	*	*	*	*8\right	*	*	*	*	*	*	*	*
8F#\	.	.	.	8a\	<	8cc#\]	.	8F#\	-nus	.	8A\	-nus	.	8a\	-nus	.	8cc#\	-nus	.	.	.	.	.	.	.
8C#\	.	8c#\L	.	8aL 8e\	.	16a\LL	.	8r	.	.	8r	.	.	8r	.	.	8r	.	.	8A/L	8f#\L	8a\L	.	8ee\L	.
.	.	.	.	.	.	16b\JJ	.	.	.	.	.	.	.	.	.	.	.	.	.	.	.	.	.	.	.
8C#\	.	8c#\	.	8a 8e\	.	(16cc#\LL	.	8C#/	tri-	.	8A\	tri-	.	8a\	tri-	.	8ee\	tri-	.	8A/	8f#\	8a\	.	8ee\	.
.	.	.	.	.	.	16dd\	.	.	.	.	.	.	.	.	.	.	.	.	.	.	.	.	.	.	.
8C#\J	.	8c#\J	.	8aJ 8e\	.	16ff#\)	.	8C#/	-bus	.	8A\	-bus	.	8a\	-bus	.	8ee\	-bus	.	8A/J	8f#\J	8a\J	.	8ee\J	.
.	.	.	.	.	[[	16ee\JJ	<	.	.	.	.	.	.	.	.	.	.	.	.	.	.	.	.	.	.
=85	=85	=85	=85	=85	=85	=85	=85	=85	=85	=85	=85	=85	=85	=85	=85	=85	=85	=85	=85	=85	=85	=85	=85	=85	=85
!	!	!	!	!LO:LB:g=original	!	!	!	!	!	!	!	!	!	!LO:LB:g=original	!	!	!	!	!	!LO:LB:g=original	!	!	!	!	!
*	*	*	*	*	*	*	*	*	*	*	*	*	*	*	*	*	*8\left	*	*	*	*	*	*	*4\left	*
8D\L	.	8d\L	.	16aLL 16d/	.	16ff#\LL	.	8D\	ho-	.	8d\	ho-	.	8a\	ho-	.	8ff#\	ho-	.	4d\	4f#\	4a\	.	4ff#\	.
.	.	.	.	16f#/	.	16a\	.	.	.	.	.	.	.	.	.	.	.	.	.	.	.	.	.	.	.
*	*	*	*	*	*	*	*	*	*	*	*	*	*	*	*	*	*8\right	*	*	*	*	*	*	*	*
8D\J	.	8d\J	.	16a/	.	16dd\	[	8D\	-nor	.	8f#\	-nor	.	8a\	-nor	.	8dd\	-nor	.	.	.	.	.	.	.
.	.	.	.	16dd/JJ	.	16ff#\JJ	.	.	.	.	.	.	.	.	.	.	.	.	.	.	.	.	.	.	.
*tremolo	*	*tremolo	*	*	*	*	*	*	*	*	*	*ij	*	*	*	*	*	*ij	*	*	*	*	*	*4\right	*
8E\L	.	8e\L	.	(16cc#\LL	.	16ee\LL	.	8E\	tri-	.	8e\	tri-	.	8a\	tri-	.	8cc#\	tri-	.	4A\	4e\	4a\	.	4cc#\	.
.	.	.	.	16a\	.	16cc#\	.	.	.	.	.	.	.	.	.	.	.	.	.	.	.	.	.	.	.
8E\	.	8e\	.	16cc#\	.	16ee\	.	8E\	-bus	.	8e\	-bus	.	8a\	-bus	.	8cc#\	-bus	.	.	.	.	.	.	.
*	*	*	*	*	*	*16\left	*	*	*	*	*	*	*	*	*	*	*	*	*	*	*	*	*	*	*
.	.	.	.	16ee\JJ	.	16aa\JJ	.	.	.	.	.	.	.	.	.	.	.	.	.	.	.	.	.	.	.
*	*	*	*	*	*	*16\right	*	*	*	*	*	*	*	*	*	*	*	*	*	*	*	*	*	*	*
8E\	.	8e\	.	16b\LL	.	16dd\LL	.	8E\	ho-	.	8B\	ho-	.	8g#\	ho-	.	8dd\	ho-	.	4e\	4e\	4g#\	.	4b\	.
.	.	.	.	16g#\	.	16b\	.	.	.	.	.	.	.	.	.	.	.	.	.	.	.	.	.	.	.
8E\J	.	8e\J	.	16b\	.	16dd\	.	8E\	-nor	.	8B\	-nor	.	8g#\	-nor	.	8dd\	-nor	.	.	.	.	.	.	.
.	.	.	.	16dd\JJ)	.	16bb\JJ	.	.	.	.	.	.	.	.	.	.	.	.	.	.	.	.	.	.	.
*	*	*	*	*	*	*	*	*	*	*	*	*Xij	*	*	*	*	*	*Xij	*	*	*	*	*	*	*
=86	=86	=86	=86	=86	=86	=86	=86	=86	=86	=86	=86	=86	=86	=86	=86	=86	=86	=86	=86	=86	=86	=86	=86	=86	=86
!	!	!	!	!	!	!	!	!	!	!	!	!	!	!	!	!	!	!	!	!	!	!LO:LB:g=original	!	!	!
8AA/L	.	8A/L	.	(16a/LL	.	16cc#\LL	.	2.AA/	u-	.	(2e\	u-	.	(2a\	u-	.	2cc#\	u-	.	2.A/	2.e\	2a\	.	2cc#\	.
.	.	.	.	16e/	.	16a\	.	.	.	.	.	.	.	.	.	.	.	.	.	.	.	.	.	.	.
8AA/	.	8A/	.	16a/	.	16cc#\	.	.	.	.	.	.	.	.	.	.	.	.	.	.	.	.	.	.	.
*	*	*	*	*	*	*16\left	*	*	*	*	*	*	*	*	*	*	*	*	*	*	*	*	*	*	*
.	.	.	.	16cc#/JJ	.	16aa\JJ	.	.	.	.	.	.	.	.	.	.	.	.	.	.	.	.	.	.	.
*	*	*	*	*rep	*	*16\right	*	*	*	*	*	*	*	*	*	*	*	*	*	*	*	*	*	*	*
8AA/	.	8A/	.	16a/LL	.	16cc#\LL	.	.	.	.	.	.	.	.	.	.	.	.	.	.	.	.	.	.	.
.	.	.	.	16e/	.	16a\	.	.	.	.	.	.	.	.	.	.	.	.	.	.	.	.	.	.	.
8AA/	.	8A/	.	16a/	.	16cc#\	.	.	.	.	.	.	.	.	.	.	.	.	.	.	.	.	.	.	.
*	*	*	*	*	*	*16\left	*	*	*	*	*	*	*	*	*	*	*	*	*	*	*	*	*	*	*
.	.	.	.	16cc#/JJ	.	16aa\JJ	.	.	.	.	.	.	.	.	.	.	.	.	.	.	.	.	.	.	.
*	*	*	*	*Xrep	*	*16\right	*	*	*	*	*	*	*	*	*	*	*	*	*	*	*	*	*	*	*
8AA/	.	8A/	.	16dd\LL	.	16b\LL	.	.	.	.	8d\L	.	.	8g#\L	.	.	(8b\L	.	.	.	.	8g#\L	.	8b\L	.
.	.	.	.	16b\	.	16gg#\	.	.	.	.	.	.	.	.	.	.	.	.	.	.	.	.	.	.	.
8AA/J	.	8A/J	.	16a\	.	16cc#\	.	.	.	.	8c#\J)	.	.	8a\J)	.	.	8a\J)	.	.	.	.	8a\J	.	8cc#\J	.
*	*	*	*	*	*	*16\left	*	*	*	*	*	*	*	*	*	*	*	*	*	*	*	*	*	*	*
.	.	.	.	16cc#\JJ)	.	16aa\JJ	.	.	.	.	.	.	.	.	.	.	.	.	.	.	.	.	.	.	.
=87	=87	=87	=87	=87	=87	=87	=87	=87	=87	=87	=87	=87	=87	=87	=87	=87	=87	=87	=87	=87	=87	=87	=87	=87	=87
!	!	!	!	!	!	!LO:LB:g=original	!	!	!	!	!	!	!	!	!	!	!	!	!	!	!	!	!	!	!
8AA/L	.	8A/L	.	(>16e/LL	.	16a/LL	.	2AA/	-nus	.	2c#\	-nus.	.	2a\	-nus	.	2g#\	-nus	.	2.A/	2.e\	2.a\	.	2.a\	.
.	.	.	.	16c#/	.	16e/	.	.	.	.	.	.	.	.	.	.	.	.	.	.	.	.	.	.	.
8AA/	.	8A/	.	16e/	.	16a/	.	.	.	.	.	.	.	.	.	.	.	.	.	.	.	.	.	.	.
.	.	.	.	16a/JJ	.	16cc#/JJ	.	.	.	.	.	.	.	.	.	.	.	.	.	.	.	.	.	.	.
8AA/	.	8A/	.	16c#/LL	.	16e/LL	.	.	.	.	.	.	.	.	.	.	.	.	.	.	.	.	.	.	.
.	.	.	.	16A/	.	16c#/	.	.	.	.	.	.	.	.	.	.	.	.	.	.	.	.	.	.	.
8AA/	.	8A/	.	16c#/	.	16e/	.	.	.	.	.	.	.	.	.	.	.	.	.	.	.	.	.	.	.
.	.	.	.	16e/JJ)	.	16a/JJ	.	.	.	.	.	.	.	.	.	.	.	.	.	.	.	.	.	.	.
8AA/	.	8A/	.	4A/	.	16c#/LL	.	4r	.	.	4r	.	.	4r	.	.	4r	.	.	.	.	.	.	.	.
.	.	.	.	.	.	16A/	.	.	.	.	.	.	.	.	.	.	.	.	.	.	.	.	.	.	.
8AA/J	.	8A/J	.	.	.	16c#/	.	.	.	.	.	.	.	.	.	.	.	.	.	.	.	.	.	.	.
.	.	.	.	.	.	16e/JJ	.	.	.	.	.	.	.	.	.	.	.	.	.	.	.	.	.	.	.
*Xtremolo	*	*	*	*	*	*	*	*	*	*	*	*	*	*	*	*	*	*	*	*	*	*	*	*	*
=88	=88	=88	=88	=88	=88	=88	=88	=88	=88	=88	=88	=88	=88	=88	=88	=88	=88	=88	=88	=88	=88	=88	=88	=88	=88
!	!	!	!	!	!	!	!	!LO:LB:g=original	!	!	!LO:LB:g=original	!	!	!	!	!	!LO:LB:g=original	!	!	!	!	!	!	!	!
2AA/	.	4.A/	.	2A/	.	2c#/	.	2.A\	A-	.	4r	.	.	4r	.	.	4r	.	.	2A/	2f#\	4.a\	.	4.a\	.
.	.	.	.	.	.	.	.	.	.	.	8r	.	.	8r	.	.	8r	.	.	.	.	.	.	.	.
.	.	8c#/L	.	.	.	.	.	.	.	.	(8c#\L	a-	.	(8a\L	a-	.	8a\L	a-	.	.	.	8a\L	.	(8a\L	.
4r	.	8d/	.	4r	.	4r	.	.	.	.	8d\	.	.	8g#X\	.	.	8b\	.	.	4r	4r	8g#\	.	8b\	.
.	.	8e/J	.	.	.	.	.	.	.	.	8e\J)	.	.	8gn\J)	.	.	8cc#\J	.	.	.	.	8gX\J	.	8cc#\J)	.
=89	=89	=89	=89	=89	=89	=89	=89	=89	=89	=89	=89	=89	=89	=89	=89	=89	=89	=89	=89	=89	=89	=89	=89	=89	=89
!LO:LB:g=original	!	!	!	!	!	!	!	!	!	!	!	!	!	!LO:LB:g=original	!	!	!	!	!	!	!	!	!	!LO:LB:g=original	!
!	!	!	!	!	!	!LO:TX:a:t=1	!	!	!	!	!	!	!	!	!	!	!	!	!	!	!	!	!	!	!
2D\	.	2d\	.	2.r	.	2.r	.	2D\	-men,	.	2.A\	.	.	2.f#\	.	.	2.dd\	.	.	2.F#/	2.d\	2.f#/	.	2.dd\	.
4F#\	.	4f#\	.	.	.	.	.	4F#\	a-	.	.	.	.	.	.	.	.	.	.	.	.	.	.	.	.
=90	=90	=90	=90	=90	=90	=90	=90	=90	=90	=90	=90	=90	=90	=90	=90	=90	=90	=90	=90	=90	=90	=90	=90	=90	=90
2A\	.	2a\	.	4r	.	4r	.	2A\	-men	.	2A\	-men	.	2e\	-men	.	2cc#\	-men.	.	2A/	2e\	2e/	.	2cc#\	.
.	.	.	.	8r	.	8r	.	.	.	.	.	.	.	.	.	.	.	.	.	.	.	.	.	.	.
*	*	*	*	*	*	*16\right	*	*	*	*	*	*	*	*	*	*	*	*	*	*	*	*	*	*	*
.	.	.	.	(16A/LL	.	(16a\LL	.	.	.	.	.	.	.	.	.	.	.	.	.	.	.	.	.	.	.
.	.	.	.	16B/JJ	.	16b\JJ	.	.	.	.	.	.	.	.	.	.	.	.	.	.	.	.	.	.	.
4r	.	4r	.	16c#/LL	.	16cc#\LL	.	4r	.	.	4r	.	.	4r	.	.	4r	.	.	4r	4r	4r	.	4r	.
.	.	.	.	16d/	.	16dd\	.	.	.	.	.	.	.	.	.	.	.	.	.	.	.	.	.	.	.
.	.	.	.	16f#/	.	16ff#\	.	.	.	.	.	.	.	.	.	.	.	.	.	.	.	.	.	.	.
.	.	.	.	16e/JJ)	.	16ee\JJ)	.	.	.	.	.	.	.	.	.	.	.	.	.	.	.	.	.	.	.
=91	=91	=91	=91	=91	=91	=91	=91	=91	=91	=91	=91	=91	=91	=91	=91	=91	=91	=91	=91	=91	=91	=91	=91	=91	=91
!	!	!LO:LB:g=original	!	!LO:LB:g=original	!	!	!	!	!	!	!	!	!	!	!	!	!	!	!	!	!	!	!	!	!
!	!LO:DY:b:rj:t=for	!	!	!	!	!	!	!	!	!	!	!	!	!	!	!	!	!	!	!	!	!	!	!	!
4E\	f	4e\	.	4g#/	.	4b\	.	2.E\	a-	.	2.d\	a-	.	2.g#\	a-	.	2.b\	a-	.	2.e\	2.e\	2.b 2.g#\	.	2.a\	.
4E\	.	4e\	.	4dd 4e/	.	4gg# 4b 4e\	.	.	.	.	.	.	.	.	.	.	.	.	.	.	.	.	.	.	.
4r	.	4r	.	4r	.	4r	.	.	.	.	.	.	.	.	.	.	.	.	.	.	.	.	.	.	.
=92	=92	=92	=92	=92	=92	=92	=92	=92	=92	=92	=92	=92	=92	=92	=92	=92	=92	=92	=92	=92	=92	=92	=92	=92	=92
!	!	!	!	!	!	!	!	!	!	!	!	!	!	!	!	!	!	!	!	!	!LO:LB:g=original	!	!	!	!
4.AA\	.	4.A\	.	4.cc# 4.e 4.A/	.	4.aa 4.cc# 4.e\	.	2AA/	-men.	.	2c#\	-men.	.	2a\	-men.	.	2a\	-men.	.	4.A/	4.e\	4.e/	.	4.a\	.
8A\L	.	8a\L	.	8cc#L 8e 8A/	.	8aaL 8cc# 8e\	.	.	.	.	.	.	.	.	.	.	.	.	.	8A/L	8e\L	8e/L	.	8cc#\L	.
8E\	.	8e\	.	8cc# 8e 8A/	.	8aa 8cc# 8e\	.	4r	.	.	4r	.	.	4r	.	.	4r	.	.	8A/	8e\	8e/	.	8cc#\	.
8C#\J	.	8c#\J	.	8cc#J 8e 8A/	.	8aaJ 8cc# 8e\	.	.	.	.	.	.	.	.	.	.	.	.	.	8A/J	8e\J	8e/J	.	8cc#\J	.
=93	=93	=93	=93	=93	=93	=93	=93	=93	=93	=93	=93	=93	=93	=93	=93	=93	=93	=93	=93	=93	=93	=93	=93	=93	=93
!	!	!	!	!	!	!LO:LB:g=original	!	!	!	!	!	!	!	!	!	!	!	!	!	!LO:LB:g=original	!	!LO:LB:g=original	!	!	!
!	!	!	!	!	!	!	!	!LO:TX:a:t=2.	!	!	!LO:TX:a:t=2	!	!	!LO:TX:a:t=2.	!	!	!LO:TX:a:t=2.	!	!	!	!	!	!	!	!
!	!	!	!	!	!	!	!	!LO:N:vis=0	!	!	!LO:N:vis=0	!	!	!LO:N:vis=0	!	!	!LO:N:vis=0	!	!	!	!	!	!	!	!
[2.AA/	.	(2.A/	.	4cc# 4e 4A/	.	4aa 4cc# 4e\	.	1.r	.	.	1.r	.	.	1.r	.	.	1.r	.	.	2A/	2e\	2a\	.	2cc#\	.
.	.	.	.	2A/	.	[2A/	.	.	.	.	.	.	.	.	.	.	.	.	.	.	.	.	.	.	.
.	.	.	.	.	.	.	.	.	.	.	.	.	.	.	.	.	.	.	.	4r	4r	4r	.	4r	.
=94	=94	=94	=94	=94	=94	=94	=94	=94	=94	=94	=94	=94	=94	=94	=94	=94	=94	=94	=94	=94	=94	=94	=94	=94	=94
!	!	!	!	!	!	!	!	!	!	!	!	!	!	!	!	!	!	!	!	!LO:TX:a:t=1.	!LO:TX:a:t=1	!	!	!	!
8AA/L]	.	8A/L	.	8A/L	.	8A/L]	.	.	.	.	.	.	.	.	.	.	.	.	.	2.r	2.r	2.r	.	2.r	.
8GG#/J	.	8G#/J)	.	8G#/J	.	8G#/J	.	.	.	.	.	.	.	.	.	.	.	.	.	.	.	.	.	.	.
4AA/	.	4A/	.	4A/	.	4A/	.	.	.	.	.	.	.	.	.	.	.	.	.	.	.	.	.	.	.
4r	.	4r	.	4r	.	4r	.	.	.	.	.	.	.	.	.	.	.	.	.	.	.	.	.	.	.
==	==	==	==	==	==	==	==	==	==	==	==	==	==	==	==	==	==	==	==	==	==	==	==	==	==
*-	*-	*-	*-	*-	*-	*-	*-	*-	*-	*-	*-	*-	*-	*-	*-	*-	*-	*-	*-	*-	*-	*-	*-	*-	*-
!!!system-decoration: [g1][g2][g3][g4]
!!!RDF**kern: > = above
!!!RDF**kern: < = below
!!!ENC: Marta Lawrence
!!!END: 2020-05-05
!!!ENC: Tomasz Grochalski
!!!END: 2020-03-23
